; HEADER_BLOCK_START
; generated by OrcaSlicer 2.3.1 on 2026-06-22 at 18:18:24
; total layer number: 30
; filament_density: 1.27,1.27,1.27,1.27
; filament_diameter: 1.75,1.75,1.75,1.75
; max_z_height: 6.00
; HEADER_BLOCK_END

; THUMBNAIL_BLOCK_START

;
; THUMBNAIL_BLOCK_END

; THUMBNAIL_BLOCK_START

;
; THUMBNAIL_BLOCK_END

; external perimeters extrusion width = 0.42mm
; perimeters extrusion width = 0.45mm
; infill extrusion width = 0.45mm
; solid infill extrusion width = 0.42mm
; top infill extrusion width = 0.42mm
; support material extrusion width = 0.42mm
; first layer extrusion width = 0.50mm

; external perimeters extrusion width = 0.42mm
; perimeters extrusion width = 0.45mm
; infill extrusion width = 0.45mm
; solid infill extrusion width = 0.42mm
; top infill extrusion width = 0.42mm
; support material extrusion width = 0.42mm
; first layer extrusion width = 0.50mm

; EXECUTABLE_BLOCK_START
M73 P0 R4
M106 S0
M106 P2 S0
;TYPE:Custom
;===== machine: PR2 ========================
;===== date: 20250717 =====================
PRINT_START
;===== 预热热床和第一个挤出头 =================
M140 S55
M104 T0 S140

;===== 粗回零 =================
G28 X Y
T0
M109 T0 S140
G28 Z
G90
G0 Z10 F10000
MOVE_TO_DISCARD_FILAMENT_POSITION
M109 S170
ROUGHLY_CLEAN_NOZZLE_WITH_DISCARD
M104 S130
G4 P2000
ROUGHLY_CLEAN_NOZZLE
MOVE_TO_XY_IDLE_POSITION_EXTRUDER

;===== 检测钢板 =================
DETECT_BED_PLATE
MOVE_TO_XY_IDLE_POSITION_EXTRUDER

;===== 自动进料  ======================
SM_PRINT_AUTO_FEED EXTRUDER=0
SM_PRINT_AUTO_FEED EXTRUDER=1
SM_PRINT_AUTO_FEED EXTRUDER=2
SM_PRINT_AUTO_FEED EXTRUDER=3

;===== 挤出流量  ======================

SM_PRINT_FLOW_CALIBRATE INDEX=0 TARGET_TEMP=220





;===== 取出第一个挤出头 =================
T0
SET_VELOCITY_LIMIT ACCEL=10000
M204 S10000

;===== 深度清洁喷嘴 =================
G90
G0 Z10 F10000
ROUGHLY_CLEAN_NOZZLE_WITH_DISCARD
G0 Z5 F10000
FINELY_CLEAN_NOZZLE_STAGE_1
G0 Z5 F10000
ROUGHLY_CLEAN_NOZZLE
G0 Z5 F10000
FINELY_CLEAN_NOZZLE_STAGE_2
M83

;===== 第一个挤出头降温 =================
M109 S130
M190 S55
M106 S0
G90
G0 Z5 F10000
MOVE_TO_DISCARD_FILAMENT_POSITION
INNER_CUTOFF_BASE_DISCARD
INNER_ROUGHLY_CLEAN_NOZZLE_BASE_DISCARD
INNER_ROUGHLY_CLEAN_NOZZLE_BASE_DISCARD
MOVE_TO_XY_IDLE_POSITION_EXTRUDER

;===== 精回零 =================
G28 Z
;===== 热床调平 =================
; Always pass `ADAPTIVE_MARGIN=0` because Orca has already handled `adaptive_bed_mesh_margin` internally
; Make sure to set ADAPTIVE to 0 otherwise Klipper will use it's own adaptive bed mesh logic
BED_MESH_CALIBRATE mesh_min=123.509,117.11 mesh_max=146.491,155.728 ALGORITHM=bicubic PROBE_COUNT=4,4 ADAPTIVE=0 ADAPTIVE_MARGIN=0

;BED_MESH_CALIBRATE PROBE_COUNT=7,7


;======== 预挤出/划线 ================









SM_PRINT_START_LINE INDEX=0 TARGET_TEMP=220

M109 S220 T0
M106 S0

TIMELAPSE_START
G90
G21
M83 ; use relative distances for extrusion
; Filament gcode
T0
M106 S0
M106 P2 S0
;LAYER_CHANGE
;Z:0.2
;HEIGHT:0.2
;BEFORE_LAYER_CHANGE
;0.2
G92 E0
TIMELAPSE_TAKE_FRAME
G1 E-.8 F2400
;AFTER_LAYER_CHANGE
;0.2
;_SET_FAN_SPEED_CHANGING_LAYER
SET_VELOCITY_LIMIT ACCEL=500 ACCEL_TO_DECEL=250
; printing object adaptador id:458767 copy 0
G1 X130.429 Y135.774 F30000
G1 Z.6
G1 Z.2
G1 E.8 F2100
;TYPE:Support
;WIDTH:0.5
G1 F3000
G1 X130.429 Y132.862 E.10845
G3 X130.937 Y132.235 I1.262 J.503 E.03051
G1 X130.937 Y135.895 E.13633
G1 X131.445 Y135.895 E.01892
M73 P1 R4
G1 X131.445 Y131.875 E.14974
G1 X131.953 Y131.681 E.02024
G1 X131.953 Y135.896 E.15696
G1 X132.461 Y135.896 E.01892
G1 X132.461 Y131.608 E.15968
G3 X132.969 Y131.612 I.248 J.826 E.0192
G1 X132.969 Y135.896 E.15955
G1 X133.476 Y135.896 E.01892
G1 X133.476 Y131.411 E.16706
G1 X133.984 Y131.286 E.01948
G1 X133.984 Y135.896 E.17171
G1 X134.485 Y135.896 E.01865
G1 X134.492 Y131.28 E.17195
G3 X135 Y131.375 I-.266 J2.811 E.01927
G1 X135 Y135.731 E.16223
G1 X135.166 Y135.896 E.00873
G1 X135.508 Y135.896 E.01273
G1 X135.508 Y131.269 E.17236
G3 X136.016 Y131.288 I.177 J2.07 E.01898
G1 X136.016 Y135.896 E.17165
G1 X136.524 Y135.896 E.01892
G1 X136.524 Y131.412 E.16703
G1 X136.615 Y131.469 E.00402
G3 X137.031 Y131.417 I.304 J.735 E.01581
G1 X137.031 Y135.897 E.16686
G1 X137.539 Y135.897 E.01892
G1 X137.539 Y131.46 E.16524
G3 X138.047 Y131.597 I-.053 J1.21 E.01975
G1 X138.047 Y135.897 E.16016
G1 X138.555 Y135.897 E.01892
M73 P2 R4
G1 X138.555 Y131.859 E.15038
G3 X139.063 Y132.309 I-1.226 J1.897 E.02536
G1 X139.063 Y135.783 E.12938
G1 X139.571 Y135.111 E.03135
G1 X139.571 Y133.183 E.07184
G3 X139.715 Y133.985 I-.938 J.582 E.03111
G1 X140.079 Y134.197 E.01569
G1 X140.079 Y134.781 E.02175
G1 X136.067 Y130.879 F30000
G1 F3000
G1 X136.622 Y130.989 E.02107
G3 X137.912 Y131.102 I-17.433 J206.355 E.04822
G3 X140.126 Y133.749 I-.782 J2.904 E.1369
G1 X140.815 Y134.149 E.02966
G1 X139.361 Y136.071 E.08976
G1 X139.115 Y136.308 E.01273
G1 X134.996 Y136.308 E.15341
G1 X134.825 Y136.137 E.009
G1 X134.658 Y136.307 E.00889
G2 X130.635 Y136.309 I-1.987 J52.41 E.14989
G1 X130.423 Y136.135 E.0102
G3 X133.018 Y131.201 I2.208 J-1.988 E.26943
G1 X133.219 Y131.05 E.00934
G1 X134.125 Y130.827 E.03477
G3 X135.033 Y130.962 I-.28 J5.004 E.03421
G3 X135.999 Y130.871 I.609 J1.295 E.03688
G1 E-.8 F2400
G1 X133.742 Y138.163 Z.6 F30000
G1 X130.695 Y148.006 Z.6
G1 Z.2
G1 E.8 F2100
G1 F3000
G1 X139.196 Y148.007 E.31664
G1 X139.335 Y148.147 E.00735
M73 P3 R4
G3 X137.051 Y153.056 I-2.387 J1.875 E.24905
G1 X136.602 Y153.34 E.01976
G1 X135.63 Y153.498 E.03669
G1 X135.051 Y153.356 E.02221
G1 X134.175 Y153.498 E.03305
G1 X133.267 Y153.275 E.03482
G1 X132.922 Y153.044 E.01549
G3 X130.414 Y147.995 I-.257 J-3.019 E.26971
G1 X130.627 Y148.004 E.00793
G1 X130.429 Y151.748 F30000
G1 F3000
G1 X130.429 Y148.667 E.11477
G3 X130.597 Y148.414 I1.023 J.499 E.01133
G1 X130.937 Y148.418 E.01266
G1 X130.937 Y152.009 E.13375
G2 X131.445 Y152.338 I1.065 J-1.089 E.02269
G1 X131.445 Y148.418 E.146
G1 X131.953 Y148.418 E.01892
G1 X131.953 Y152.543 E.15366
G2 X132.461 Y152.641 I.554 J-1.504 E.01935
G1 X132.461 Y148.418 E.15731
G1 X132.969 Y148.418 E.01892
G1 X132.969 Y152.626 E.15672
G1 X133.476 Y152.903 E.02154
G1 X133.476 Y148.418 E.16703
G1 X133.984 Y148.418 E.01892
G1 X133.984 Y153.028 E.17169
G2 X134.492 Y153.03 I.257 J-.595 E.01944
G1 X134.492 Y148.418 E.17177
G1 X135 Y148.418 E.01892
G1 X135 Y152.947 E.1687
G1 X135.508 Y153.045 E.01926
G1 X135.508 Y148.418 E.17232
G1 X136.016 Y148.418 E.01892
M73 P4 R4
G1 X136.016 Y153.019 E.17136
G1 X136.524 Y152.903 E.0194
G1 X136.524 Y148.418 E.16705
G1 X137.031 Y148.418 E.01892
G1 X137.031 Y152.645 E.15745
G2 X137.539 Y152.572 I.089 J-1.184 E.01926
G1 X137.539 Y148.418 E.15472
G1 X138.047 Y148.418 E.01892
G1 X138.047 Y152.417 E.14896
G2 X138.555 Y152.097 I-.56 J-1.449 E.02252
G1 X138.555 Y148.418 E.13701
G1 X139.017 Y148.418 E.01721
G1 X139.063 Y148.495 E.00333
G1 X139.063 Y151.897 E.12673
G1 E-.8 F2400
G1 X138.141 Y145.17 Z.6 F30000
G1 Z.2
G1 E.8 F2100
;TYPE:Inner wall
G1 F3000
G1 X137.965 Y145.338 E.00904
G3 X136.535 Y145.89 I-1.474 J-1.69 E.05828
G1 X133.468 Y145.89 E.11424
G3 X131.267 Y143.692 I.041 J-2.242 E.12805
G1 X131.267 Y140.622 E.11435
G3 X133.465 Y138.423 I2.255 J.057 E.12774
G1 X136.535 Y138.423 E.11435
G3 X138.733 Y140.622 I-.044 J2.242 E.12794
G1 X138.733 Y143.689 E.11424
G3 X138.181 Y145.122 I-2.242 J-.041 E.05839
G1 X138.166 Y145.139 E.00085
G1 X137.787 Y144.816 F30000
;TYPE:Outer wall
G1 F3000
G1 X137.638 Y144.96 E.00772
G3 X136.516 Y145.39 I-1.146 J-1.312 E.04569
G1 X133.486 Y145.39 E.11285
M73 P5 R4
G3 X131.767 Y143.672 I.022 J-1.741 E.10018
G1 X131.767 Y140.641 E.1129
G3 X133.484 Y138.923 I1.749 J.031 E.10001
G1 X136.516 Y138.923 E.1129
G3 X138.233 Y140.641 I-.024 J1.741 E.10013
G1 X138.233 Y143.671 E.11285
G3 X137.812 Y144.785 I-1.741 J-.022 E.04528
G1 E-.8 F2400
G1 X143.07 Y144.409 Z.6 F30000
G1 Z.2
G1 E.8 F2100
;TYPE:Inner wall
G1 F3000
G3 X139.273 Y146.657 I-3.796 J-2.082 E.17249
G1 X130.727 Y146.657 E.31827
G3 X126.929 Y144.408 I-.008 J-4.32 E.17255
G1 X127.476 Y144.5 E.02067
G2 X127.476 Y139.813 I.184 J-2.343 E.28874
G1 X126.929 Y139.905 E.02067
G3 X130.727 Y137.657 I3.791 J2.072 E.17255
G1 X134.543 Y137.657 E.14213
G1 X139.318 Y137.658 E.17784
G3 X143.07 Y139.904 I-.04 J4.325 E.17074
G1 X142.525 Y139.814 E.0206
G2 X142.524 Y144.5 I-.185 J2.343 E.28876
G1 X143.031 Y144.415 E.01916
G1 E-.8 F2400
G1 X135.495 Y143.205 Z.6 F30000
G1 X126.027 Y141.685 Z.6
M73 P6 R4
G1 Z.2
G1 E.8 F2100
;TYPE:Outer wall
G1 F3000
G1 X126.04 Y141.661 E.00101
G3 X126.368 Y141.016 I1.804 J.51 E.02711
G3 X127.519 Y140.313 I1.261 J.772 E.05217
G3 X127.232 Y143.952 I.139 J1.842 E.23731
G3 X126.368 Y143.297 I.388 J-1.409 E.04138
G3 X126.033 Y142.655 I2.366 J-1.644 E.02707
G3 X125.987 Y141.914 I1.812 J-.484 E.02784
G1 X126.02 Y141.724 E.00717
G1 E-.8 F2400
G1 X133.635 Y141.211 Z.6 F30000
G1 X143.211 Y140.567 Z.6
G1 Z.2
G1 E.8 F2100
G1 F3000
G1 X143.267 Y140.611 E.00268
G3 X143.479 Y140.793 I-.95 J1.321 E.01041
G3 X143.877 Y141.43 I-5.214 J3.704 E.02798
G3 X143.757 Y143.097 I-1.567 J.724 E.06496
G3 X143.273 Y143.71 I-1.909 J-1.008 E.02925
G3 X141.421 Y143.763 I-.967 J-1.414 E.07291
G3 X141.932 Y140.351 I.921 J-1.606 E.16533
G3 X143.018 Y140.464 I.385 J1.581 E.04148
G1 X143.175 Y140.548 E.00664
G1 E-.8 F2400
G1 X144.176 Y143.152 Z.6 F30000
G1 Z.2
G1 E.8 F2100
G1 F3000
G3 X143.879 Y143.923 I-2.62 J-.568 E.03089
G3 X143.303 Y144.991 I-10.114 J-4.761 E.04519
G3 X139.283 Y147.157 I-4.017 J-2.642 E.17725
G1 X130.717 Y147.157 E.31904
G3 X126.285 Y144.252 I.019 J-4.863 E.20876
G1 X125.951 Y143.559 E.02863
G3 X125.759 Y142.352 I3.252 J-1.137 E.04578
G3 X125.83 Y141.125 I7.259 J-.195 E.0458
M73 P7 R4
G3 X126.103 Y140.431 I2.529 J.592 E.02789
G3 X126.697 Y139.323 I10.253 J4.781 E.04684
G3 X130.717 Y137.157 I4.03 J2.666 E.17717
G1 X134.543 Y137.157 E.14251
G1 X139.328 Y137.158 E.17822
G3 X143.697 Y140.021 I-.065 J4.865 E.20537
G1 X144.049 Y140.754 E.03027
G3 X144.241 Y141.962 I-3.253 J1.137 E.04579
G3 X144.181 Y143.113 I-7.394 J.193 E.04297
G1 X143.674 Y143.714 F30000
;TYPE:Gap infill
;WIDTH:0.120563
G1 F3000
G1 X143.609 Y143.801 E.00068
;WIDTH:0.156824
G1 X143.544 Y143.887 E.001
;WIDTH:0.196434
G3 X143.468 Y143.988 I-.978 J-.663 E.00159
;WIDTH:0.223483
G1 X143.46 Y143.997 E.00017
;WIDTH:0.207711
G1 X143.361 Y144.033 E.00141
;WIDTH:0.169478
G1 X143.262 Y144.069 E.00108
;WIDTH:0.134015
G1 X143.093 Y144.124 E.00132
G1 E-.8 F2400
G1 X143.668 Y140.594 Z.6 F30000
G1 Z.2
G1 E.8 F2100
;WIDTH:0.120952
G1 F3000
G1 X143.605 Y140.509 E.00067
;WIDTH:0.157016
G1 X143.542 Y140.424 E.00098
;WIDTH:0.19653
G2 X143.467 Y140.325 I-.955 J.641 E.00156
;WIDTH:0.224382
G1 X143.458 Y140.315 E.00021
;WIDTH:0.208212
G1 X143.354 Y140.277 E.0015
;WIDTH:0.167684
G1 X143.249 Y140.239 E.00113
;WIDTH:0.134651
G1 X143.098 Y140.189 E.00119
G1 X142.603 Y139.688 F30000
;TYPE:Bottom surface
;WIDTH:0.513144
G1 F6300
G1 X141.91 Y138.995 E.03754
G2 X140.418 Y138.168 I-2.556 J2.852 E.0659
G1 X141.773 Y139.523 E.0734
G1 X141.272 Y139.687 E.02019
G1 X139.598 Y138.013 E.09071
G2 X138.921 Y138.001 I-.484 J8.218 E.02595
G1 X140.844 Y139.924 E.10418
G2 X140.476 Y140.22 I.76 J1.32 E.01819
G1 X138.256 Y138.001 E.12027
G1 X138.015 Y138.001 E.00924
G1 X137.95 Y138.36 E.01398
G1 X140.164 Y140.574 E.11997
G1 X139.913 Y140.988 E.01856
G1 X139.008 Y140.083 E.04905
G3 X139.076 Y140.816 I-3.08 J.655 E.02827
G1 X139.738 Y141.478 E.03589
G2 X139.653 Y142.058 I1.801 J.561 E.02254
G1 X139.076 Y141.481 E.03126
G1 X139.076 Y142.146 E.02548
G1 X139.73 Y142.8 E.03543
G2 X141.704 Y144.773 I2.589 J-.615 E.11258
G1 X142.084 Y145.154 E.02061
G3 X141.733 Y145.468 I-2.092 J-1.98 E.01806
G1 X139.076 Y142.811 E.144
G1 X139.076 Y143.476 E.02548
M73 P8 R4
G1 X141.338 Y145.738 E.12258
G3 X140.904 Y145.968 I-1.623 J-2.534 E.01887
G1 X139.035 Y144.1 E.10127
G3 X138.887 Y144.617 I-1.72 J-.213 E.02069
G1 X140.416 Y146.146 E.08286
G3 X139.873 Y146.268 I-1.202 J-4.085 E.02135
G1 X138.664 Y145.059 E.06551
G3 X138.368 Y145.428 I-1.443 J-.855 E.01819
G1 X139.254 Y146.314 E.04803
G1 X138.589 Y146.314 E.02548
G1 X137.866 Y145.591 E.03919
G1 X137.633 Y146.152 F30000
;TYPE:Gap infill
;WIDTH:0.487177
G1 F3000
G1 X137.269 Y146.218 E.01339
;WIDTH:0.458513
G1 X137.238 Y146.223 E.00104
;WIDTH:0.435913
G1 X137.069 Y146.241 E.00545
;WIDTH:0.397175
G3 X136.877 Y146.261 I-.388 J-2.814 E.00558
;WIDTH:0.354617
G1 X133.449 Y146.273 E.08708
G3 X133.132 Y146.261 I.022 J-4.73 E.00805
;WIDTH:0.39572
G1 X132.95 Y146.242 E.00526
;WIDTH:0.436674
G3 X132.736 Y146.219 I.191 J-2.745 E.00691
;WIDTH:0.473646
G1 X132.552 Y146.185 E.00658
;WIDTH:0.486239
G1 X132.367 Y146.152 E.00678
G1 E-.8 F2400
G1 X126.908 Y144.124 Z.6 F30000
G1 Z.2
G1 E.8 F2100
;WIDTH:0.107174
G1 F3000
G1 X126.836 Y144.104 E.00039
;WIDTH:0.131328
G1 X126.738 Y144.069 E.00075
;WIDTH:0.169349
G1 X126.64 Y144.033 E.00108
;WIDTH:0.209768
G3 X126.521 Y143.973 I-.003 J-.142 E.00189
;WIDTH:0.191758
G1 X126.458 Y143.889 E.00127
;WIDTH:0.156223
G1 X126.396 Y143.805 E.00097
;WIDTH:0.138455
G1 X126.334 Y143.721 E.00081
G1 E-.8 F2400
G1 X126.327 Y140.598 Z.6 F30000
G1 Z.2
G1 E.8 F2100
;WIDTH:0.13867
G1 F3000
G1 X126.391 Y140.512 E.00084
;WIDTH:0.156757
G1 X126.456 Y140.426 E.001
;WIDTH:0.192931
G1 X126.52 Y140.339 E.00132
;WIDTH:0.210066
G3 X126.639 Y140.281 I.115 J.082 E.00188
;WIDTH:0.169395
G1 X126.738 Y140.245 E.00108
;WIDTH:0.131177
G1 X126.837 Y140.209 E.00076
;WIDTH:0.107045
G1 X126.907 Y140.189 E.00038
G1 E-.8 F2400
G1 X132.134 Y138.723 Z.6 F30000
G1 Z.2
G1 E.8 F2100
;TYPE:Bottom surface
;WIDTH:0.513115
G1 F6300
G1 X131.41 Y138 E.0392
G1 X130.745 Y137.999 E.02548
G1 X131.633 Y138.888 E.04813
G1 X131.558 Y138.959 E.00396
G1 X131.336 Y139.255 E.0142
G1 X130.127 Y138.046 E.06553
G2 X129.583 Y138.168 I.661 J4.213 E.02134
G1 X131.113 Y139.697 E.08287
G2 X130.964 Y140.213 I1.67 J.763 E.02064
M73 P9 R4
G1 X129.096 Y138.345 E.1012
G2 X128.661 Y138.576 I1.188 J2.764 E.01887
G1 X130.924 Y140.838 E.12259
G1 X130.924 Y141.503 E.02548
G1 X128.266 Y138.845 E.144
G2 X127.916 Y139.16 I1.703 J2.249 E.01806
G1 X128.296 Y139.54 E.02057
G3 X130.27 Y141.514 I-.614 J2.589 E.11261
G1 X130.924 Y142.168 E.03544
G1 X130.924 Y142.833 E.02548
G1 X130.348 Y142.257 E.03121
G3 X130.262 Y142.836 I-1.963 J.004 E.02251
G1 X130.924 Y143.498 E.03587
G2 X130.992 Y144.231 I3.147 J.078 E.02827
G1 X130.088 Y143.327 E.04899
G1 X129.836 Y143.74 E.01854
G1 X132.054 Y145.958 E.1202
G1 X131.989 Y146.314 E.01386
G1 X131.745 Y146.314 E.00935
G1 X129.524 Y144.093 E.12034
G3 X129.156 Y144.39 I-1.128 J-1.023 E.01819
G1 X131.08 Y146.314 E.10426
G3 X130.402 Y146.3 I-.173 J-8.294 E.02601
G1 X128.726 Y144.625 E.09077
G3 X128.227 Y144.79 I-1.421 J-3.463 E.02019
G1 X129.581 Y146.145 E.07341
G3 X128.089 Y145.318 I1.064 J-3.678 E.06594
G1 X127.397 Y144.626 E.0375
G1 E-.8 F2400
G1 X132.049 Y138.575 Z.6 F30000
G1 X132.367 Y138.162 Z.6
G1 Z.2
G1 E.8 F2100
;TYPE:Gap infill
;WIDTH:0.462511
G1 F3000
G1 X132.731 Y138.095 E.01267
;WIDTH:0.438942
G3 X132.931 Y138.073 I.406 J2.694 E.00648
;WIDTH:0.399075
G1 X133.1 Y138.055 E.00494
;WIDTH:0.354035
G3 X134.543 Y138.04 I.913 J19.294 E.0366
G3 X136.556 Y138.041 I.995 J51.49 E.05103
M73 P10 R4
G1 X136.877 Y138.053 E.00815
;WIDTH:0.395808
G3 X137.068 Y138.073 I-.195 J2.817 E.00552
;WIDTH:0.434264
G1 X137.236 Y138.091 E.00539
;WIDTH:0.471184
G3 X137.451 Y138.129 I-.425 J3.052 E.00763
;WIDTH:0.498867
G1 X137.637 Y138.163 E.00702
; stop printing object adaptador id:458767 copy 0
; printing object upper part id:0 copy 0
G1 E-.8 F2400
G1 X133.853 Y131.535 Z.6 F30000
G1 X130.058 Y124.889 Z.6
G1 Z.2
G1 E.8 F2100
;TYPE:Inner wall
;WIDTH:0.5
G1 F3000
G3 X128.555 Y122.461 I.941 J-2.261 E.11353
G3 X131.005 Y120.01 I2.453 J.002 E.14334
G1 X131.483 Y120.01 E.01779
G1 X139.39 Y120.012 E.29451
M73 P10 R3
G3 X141.803 Y122.626 I-.029 J2.447 E.14833
G3 X139.352 Y125.076 I-2.453 J-.002 E.14335
G1 X131.005 Y125.076 E.31088
G3 X130.095 Y124.904 I-.007 J-2.449 E.03473
G1 X129.866 Y125.351 F30000
;TYPE:Outer wall
G1 F3000
G3 X128.055 Y122.451 I1.132 J-2.723 E.13583
G3 X130.995 Y119.51 I2.956 J.015 E.17182
G1 X131.483 Y119.51 E.01815
G1 X139.4 Y119.512 E.29487
G3 X142.303 Y122.635 I-.038 J2.946 E.17757
G3 X139.362 Y125.576 I-2.956 J-.015 E.17183
