; generated by PrusaSlicer 2.9.4 on 2026-06-22 at 15:22:00 UTC

; 

; external perimeters extrusion width = 0.45mm
; perimeters extrusion width = 0.45mm
; infill extrusion width = 0.45mm
; solid infill extrusion width = 0.45mm
; top infill extrusion width = 0.40mm
; support material extrusion width = 0.35mm
; first layer extrusion width = 0.42mm

; external perimeters extrusion width = 0.45mm
; perimeters extrusion width = 0.45mm
; infill extrusion width = 0.45mm
; solid infill extrusion width = 0.45mm
; top infill extrusion width = 0.40mm
; support material extrusion width = 0.35mm
; first layer extrusion width = 0.42mm

M73 P0 R13
M73 Q0 S13
M201 X1000 Y1000 Z200 E5000 ; sets maximum accelerations, mm/sec^2
M203 X200 Y200 Z12 E120 ; sets maximum feedrates, mm / sec
M204 S1250 T1250 ; sets acceleration (S) and retract acceleration (R), mm/sec^2
M205 X8.00 Y8.00 Z0.40 E4.50 ; sets the jerk limits, mm/sec
M205 S0 T0 ; sets the minimum extruding and travel feed rate, mm/sec

; printing object adaptador_250606_5.9.5_0tol id:0 copy 0
; stop printing object adaptador_250606_5.9.5_0tol id:0 copy 0
; printing object upper part_250606_5.9.5_0tol id:1 copy 0
; stop printing object upper part_250606_5.9.5_0tol id:1 copy 0

;TYPE:Custom
M862.3 P "MK3S" ; printer model check
M862.1 P0.4 ; nozzle diameter check
M115 U3.10.1 ; tell printer latest fw version
G90 ; use absolute coordinates
M83 ; extruder relative mode
M104 S215 ; set extruder temp
M140 S60 ; set bed temp
M190 S60 ; wait for bed temp
M109 S215 ; wait for extruder temp
G28 W ; home all without mesh bed level
G80 ; mesh bed leveling
G1 Z0.2 F720
G1 Y-3 F1000 ; go outside print area
G92 E0
G1 X60 E9 F1000 ; intro line
G1 X100 E12.5 F1000 ; intro line
G92 E0
M221 S95

; Don't change E values below. Excessive value can damage the printer.
M907 E430 ; set extruder motor current
G21 ; set units to millimeters
G90 ; use absolute coordinates
M83 ; use relative distances for extrusion
M900 K0.05 ; Filament gcode LA 1.5
M900 K30 ; Filament gcode LA 1.0
M107
;LAYER_CHANGE
;Z:0.2
;HEIGHT:0.2
G1 E-.8 F2100
G1 Z.6 F720
G1 X117.317 Y67.686 F10800
G1 Z.2 F720
G1 E.8 F2100
M204 S800
;TYPE:Skirt/Brim
;WIDTH:0.42
G1 F1200
G1 X118.692 Y65.635 E.07742
G1 X119.425 Y64.79 E.03507
G1 X119.896 Y64.385 E.01948
G1 X120.698 Y63.874 E.02982
G1 X122.008 Y63.322 E.04457
G1 X123.866 Y63.082 E.05874
G1 X127.597 Y63.131 E.11699
G1 X129.183 Y63.521 E.05121
G1 X129.984 Y63.91 E.02792
G1 X131.061 Y64.688 E.04166
M73 Q1 S13
G1 X131.722 Y65.39 E.03023
G1 X132.572 Y66.746 E.05018
G1 X136.587 Y74.519 E.27431
M73 P1 R13
G1 X137.039 Y75.608 E.03697
G1 X137.343 Y76.831 E.03951
G1 X137.446 Y77.859 E.03239
G1 X137.432 Y79.209 E.04233
G1 X135.424 Y106.111 E.84584
G1 X135.24 Y106.881 E.02482
G1 X134.874 Y107.804 E.03113
G1 X134.533 Y108.414 E.02191
G1 X133.937 Y109.207 E.0311
G1 X133.377 Y109.768 E.02485
G1 X132.748 Y110.254 E.02492
G1 X131.974 Y110.705 E.02809
G1 X131.242 Y111.008 E.02484
G1 X130.28 Y111.255 E.03114
G1 X129.292 Y111.349 E.03112
G1 X120.809 Y111.351 E.26598
G1 X119.72 Y111.255 E.03428
G1 X118.758 Y111.008 E.03114
G1 X117.847 Y110.614 E.03112
G1 X117.172 Y110.2 E.02483
G1 X116.406 Y109.567 E.03116
G1 X115.872 Y108.978 E.02493
G1 X115.362 Y108.242 E.02808
G1 X114.925 Y107.35 E.03114
G1 X114.633 Y106.401 E.03113
G1 X114.498 Y105.505 E.02841
G1 X112.568 Y79.209 E.82671
G1 X112.554 Y77.859 E.04233
G1 X112.657 Y76.831 E.03239
G1 X113.036 Y75.393 E.04663
G1 X113.599 Y74.168 E.04227
G1 X117.287 Y67.739 E.23239
M204 S1000
G1 X117.614 Y67.926 F10800
M204 S800
G1 F1200
G1 X117.644 Y67.874 E.00188
G1 X119.005 Y65.845 E.0766
G1 X119.704 Y65.044 E.03333
G1 X120.626 Y64.351 E.03616
G1 X121.534 Y63.879 E.03209
M73 P1 R12
G1 X122.696 Y63.57 E.0377
G1 X123.866 Y63.459 E.03685
G1 X127.523 Y63.501 E.11467
G1 X129.079 Y63.883 E.05024
G1 X129.763 Y64.215 E.02384
G1 X130.84 Y64.994 E.04168
G1 X131.404 Y65.592 E.02577
G1 X132.237 Y66.919 E.04913
G1 X136.248 Y74.684 E.27403
G1 X136.683 Y75.733 E.03561
G1 X136.973 Y76.902 E.03776
G1 X137.078 Y78.101 E.03774
G1 X137.056 Y79.181 E.03387
G1 X135.055 Y106.037 E.84439
G1 X134.877 Y106.779 E.02392
M73 P2 R12
M73 Q2 S13
G1 X134.532 Y107.647 E.02929
G1 X134.22 Y108.204 E.02002
G1 X133.66 Y108.952 E.0293
G1 X133.121 Y109.491 E.0239
G1 X132.373 Y110.05 E.02928
G1 X131.816 Y110.363 E.02003
G1 X130.948 Y110.707 E.02927
G1 X130.037 Y110.912 E.02928
G1 X129.191 Y110.974 E.0266
G1 X120.809 Y110.974 E.26281
G1 X119.793 Y110.885 E.03198
G1 X119.052 Y110.707 E.02389
M73 Q2 S12
G1 X118.184 Y110.363 E.02927
G1 X117.381 Y109.886 E.02928
G1 X116.662 Y109.29 E.02928
G1 X116.168 Y108.745 E.02306
G1 X115.691 Y108.058 E.02622
G1 X115.279 Y107.219 E.02931
G1 X115.003 Y106.327 E.02928
G1 X114.875 Y105.477 E.02695
G1 X112.944 Y79.181 E.82671
G1 X112.922 Y78.101 E.03387
G1 X113.027 Y76.902 E.03774
G1 X113.392 Y75.518 E.04488
G1 X113.927 Y74.355 E.04014
G1 X117.584 Y67.978 E.23049
M204 S1000
;WIPE_START
G1 F8640
G1 X117.614 Y67.926 E-.01386
G1 X117.644 Y67.874 E-.01386
G1 X119.005 Y65.845 E-.56414
G1 X119.598 Y65.166 E-.20814
;WIPE_END
G1 Z.6 F720
; printing object adaptador_250606_5.9.5_0tol id:0 copy 0
G1 X131.067 Y85.094 F10800
G1 Z.2 F720
G1 E.8 F2100
M204 S800
;TYPE:Support material
G1 F1200
G1 X131.325 Y86.44 E.04297
G1 X131.067 Y87.786 E.04297
G1 X130.332 Y88.942 E.04295
G1 X129.221 Y89.746 E.043
G1 X127.893 Y90.082 E.04295
G1 X126.535 Y89.906 E.04294
G1 X126.227 Y89.734 E.01106
G1 X126.059 Y89.998 E.00981
G1 X124.948 Y90.801 E.04298
G1 X123.62 Y91.138 E.04296
G1 X122.262 Y90.961 E.04294
G1 X121.065 Y90.296 E.04293
G1 X120.197 Y89.236 E.04296
G1 X119.813 Y88.027 E.03977
G1 X119.813 Y87.124 E.02831
G1 X119.935 Y86.511 E.0196
G1 X120.355 Y85.589 E.03177
G1 X120.378 Y85.152 E.01372
G1 X120.715 Y84.263 E.02981
G1 X129.295 Y84.263 E.26902
G1 X130.458 Y84.137 E.03668
G1 X131.037 Y85.047 E.03382
M204 S1000
G1 X130.866 Y87.787 F10800
M204 S800
G1 F1200
G1 X130.866 Y85.847 E.06083
G1 X130.746 Y85.222 E.01995
G1 X130.447 Y84.751 E.01749
G1 X130.447 Y88.13 E.10595
G1 X130.028 Y88.743 E.02328
G1 X130.028 Y84.553 E.13137
G1 X129.609 Y84.59 E.01319
G1 X129.609 Y89.047 E.13975
G1 X129.19 Y89.35 E.01621
G1 X129.19 Y84.602 E.14887
G1 X128.771 Y84.602 E.01314
G1 X128.771 Y89.51 E.15389
G1 X128.352 Y89.616 E.01355
G1 X128.352 Y84.602 E.15721
G1 X127.933 Y84.602 E.01314
G1 X127.933 Y89.722 E.16053
G1 X127.514 Y89.691 E.01317
M73 Q3 S12
G1 X127.514 Y84.602 E.15956
G1 X127.095 Y84.602 E.01314
M73 P3 R12
G1 X127.095 Y89.636 E.15784
G1 X126.676 Y89.582 E.01325
G1 X126.676 Y84.602 E.15614
G1 X126.257 Y84.602 E.01314
G1 X126.257 Y89.363 E.14928
G1 X126.112 Y89.282 E.00521
G1 X125.838 Y89.713 E.01601
G1 X125.838 Y84.602 E.16025
G1 X125.419 Y84.602 E.01314
G1 X125.419 Y90.042 E.17057
G1 X125 Y90.345 E.01621
G1 X125 Y84.602 E.18007
G1 X124.581 Y84.602 E.01314
G1 X124.581 Y90.544 E.18631
G1 X124.162 Y90.651 E.01356
G1 X124.162 Y84.602 E.18966
G1 X123.743 Y84.602 E.01314
G1 X123.743 Y90.757 E.19299
G1 X123.324 Y90.757 E.01314
G1 X123.324 Y84.602 E.19299
G1 X122.905 Y84.602 E.01314
G1 X122.905 Y90.703 E.19129
G1 X122.486 Y90.648 E.01325
G1 X122.486 Y84.602 E.18957
G1 X122.067 Y84.602 E.01314
G1 X122.067 Y90.465 E.18383
G1 X121.648 Y90.232 E.01503
G1 X121.648 Y84.602 E.17652
G1 X121.229 Y84.602 E.01314
G1 X121.229 Y89.961 E.16803
G1 X120.81 Y89.449 E.02074
G1 X120.81 Y84.968 E.1405
G1 X120.714 Y85.222 E.00851
G1 X120.689 Y85.7 E.01501
G1 X120.391 Y86.271 E.02019
G1 X120.391 Y89.205 E.09199
M204 S1000
;WIPE_START
G1 F8640
G1 X120.391 Y86.271 E-.67747
G1 X120.637 Y85.8 E-.12253
;WIPE_END
G1 Z.6 F720
G1 X127.711 Y65.769 F10800
G1 Z.2 F720
G1 E.8 F2100
M204 S800
G1 F1200
G1 X128.481 Y65.988 E.0251
G1 X129.557 Y66.767 E.04165
G1 X130.293 Y67.923 E.04297
G1 X130.55 Y69.269 E.04297
G1 X130.293 Y70.615 E.04297
G1 X129.617 Y71.678 E.0395
G1 X129.537 Y72.115 E.01393
G1 X129.295 Y72.503 E.01434
G1 X120.705 Y72.503 E.26933
G1 X119.695 Y72.596 E.0318
G1 X119.262 Y71.625 E.03333
G1 X119.146 Y71.013 E.01953
G1 X119.146 Y70.267 E.02339
G1 X119.275 Y69.653 E.01967
G1 X119.542 Y68.963 E.0232
G1 X120.322 Y67.976 E.03944
G1 X120.472 Y67.589 E.01301
G1 X120.819 Y67.069 E.0196
G1 X121.321 Y66.518 E.02337
G1 X122.509 Y65.838 E.04292
G1 X123.123 Y65.716 E.01963
G1 X123.866 Y65.647 E.0234
G1 X125.327 Y66.044 E.04747
G1 X125.739 Y65.838 E.01444
G1 X126.353 Y65.716 E.01963
G1 X127.096 Y65.647 E.0234
G1 X127.655 Y65.758 E.01787
M204 S1000
G1 X130.028 Y70.716 F10800
M204 S800
G1 F1200
M73 Q4 S12
G1 X130.028 Y68.344 E.07437
G1 X129.972 Y68.051 E.00935
M73 P4 R12
G1 X129.609 Y67.48 E.02121
G1 X129.609 Y71.058 E.11219
G1 X129.295 Y71.552 E.01835
G1 X129.19 Y72.03 E.01534
G1 X129.19 Y66.92 E.16022
G1 X128.771 Y66.617 E.01621
G1 X128.771 Y72.163 E.17389
G1 X128.352 Y72.163 E.01314
G1 X128.352 Y66.314 E.18339
G1 X127.933 Y66.185 E.01375
G1 X127.933 Y72.163 E.18744
G1 X127.514 Y72.163 E.01314
G1 X127.514 Y66.076 E.19085
G1 X127.095 Y65.993 E.01339
G1 X127.095 Y72.163 E.19346
G1 X126.676 Y72.163 E.01314
G1 X126.676 Y66.027 E.19239
G1 X126.257 Y66.081 E.01325
G1 X126.257 Y72.163 E.1907
G1 X125.838 Y72.163 E.01314
G1 X125.838 Y66.168 E.18797
G1 X125.419 Y66.377 E.01468
G1 X125.419 Y72.163 E.18142
G1 X125 Y72.163 E.01314
G1 X125 Y66.27 E.18477
G1 X124.581 Y66.151 E.01366
G1 X124.581 Y72.163 E.1885
G1 X124.162 Y72.163 E.01314
G1 X124.162 Y66.052 E.19161
G1 X123.743 Y65.999 E.01324
G1 X123.743 Y72.163 E.19327
G1 X123.324 Y72.163 E.01314
G1 X123.324 Y66.038 E.19205
G1 X123.172 Y66.052 E.00479
G1 X122.905 Y66.105 E.00853
G1 X122.905 Y72.163 E.18994
G1 X122.486 Y72.163 E.01314
G1 X122.486 Y66.229 E.18606
G1 X122.067 Y66.437 E.01467
G1 X122.067 Y72.163 E.17953
G1 X121.648 Y72.163 E.01314
G1 X121.648 Y66.708 E.17104
G1 X121.229 Y67.123 E.01849
G1 X121.229 Y72.163 E.15803
G1 X120.81 Y72.163 E.01314
G1 X120.81 Y67.693 E.14015
G1 X120.615 Y68.158 E.01581
G1 X120.391 Y68.404 E.01043
G1 X120.391 Y72.176 E.11827
G1 X119.972 Y72.213 E.01319
G1 X119.972 Y68.934 E.10281
G1 X119.553 Y69.978 E.03527
G1 X119.553 Y71.908 E.06051
M204 S1000
;WIPE_START
G1 F8640
M73 Q5 S12
G1 X119.553 Y69.978 E-.44564
G1 X119.972 Y68.934 E-.25975
M73 P5 R12
G1 X119.972 Y69.344 E-.09461
;WIPE_END
G1 Z.6 F720
G1 X128.088 Y81.268 F10800
G1 Z.2 F720
G1 E.8 F2100
M204 S800
;TYPE:Perimeter
;WIDTH:0.419999
G1 F1200
G1 X127.707 Y81.622 E.01631
G1 X127.17 Y81.89 E.01882
G1 X126.557 Y82.003 E.01954
G1 X123.492 Y82.003 E.0961
G1 X123.142 Y81.967 E.01103
G1 X122.535 Y81.766 E.02005
G1 X122.048 Y81.422 E.01869
G1 X121.675 Y80.954 E.01876
G1 X121.447 Y80.4 E.01878
G1 X121.38 Y79.891 E.0161
G1 X121.38 Y76.875 E.09456
G1 X121.422 Y76.482 E.01239
G1 X121.616 Y75.918 E.0187
G1 X121.961 Y75.43 E.01874
G1 X122.428 Y75.057 E.01874
G1 X122.966 Y74.833 E.01827
G1 X123.492 Y74.762 E.01664
G1 X126.508 Y74.762 E.09456
G1 X126.896 Y74.804 E.01224
G1 X127.424 Y74.981 E.01746
G1 X127.952 Y75.343 E.02007
G1 X128.325 Y75.811 E.01876
G1 X128.537 Y76.294 E.01654
G1 X128.615 Y76.794 E.01587
G1 X128.62 Y79.891 E.0971
G1 X128.584 Y80.241 E.01103
G1 X128.436 Y80.744 E.01644
G1 X128.145 Y81.215 E.01736
G1 X128.132 Y81.227 E.00055
M204 S1000
G1 X127.81 Y81.025 F10800
M204 S800
;TYPE:External perimeter
G1 F1200
G1 X127.794 Y81.049 E.0009
G1 X127.416 Y81.365 E.01545
G1 X126.963 Y81.562 E.01549
G1 X126.508 Y81.626 E.01441
G1 X123.492 Y81.626 E.09456
G1 X123.247 Y81.605 E.00771
G1 X122.741 Y81.45 E.01659
G1 X122.333 Y81.176 E.01541
G1 X122.018 Y80.798 E.01543
G1 X121.81 Y80.275 E.01765
G1 X121.757 Y79.891 E.01215
G1 X121.757 Y76.875 E.09456
G1 X121.783 Y76.591 E.00894
G1 X121.956 Y76.088 E.01668
G1 X122.207 Y75.716 E.01407
G1 X122.584 Y75.401 E.0154
G1 X123.037 Y75.203 E.0155
G1 X123.492 Y75.139 E.01441
G1 X126.508 Y75.139 E.09456
G1 X126.79 Y75.165 E.00888
G1 X127.223 Y75.3 E.01422
G1 X127.667 Y75.589 E.01661
G1 X127.982 Y75.967 E.01543
G1 X128.179 Y76.419 E.01546
G1 X128.243 Y76.875 E.01444
G1 X128.243 Y79.891 E.09456
G1 X128.222 Y80.136 E.00771
G1 X128.067 Y80.642 E.01659
G1 X127.843 Y80.975 E.01258
M204 S1000
;WIPE_START
G1 F8640
G1 X127.81 Y81.025 E-.01383
G1 X127.794 Y81.049 E-.00666
G1 X127.416 Y81.365 E-.11376
G1 X126.963 Y81.562 E-.11406
G1 X126.508 Y81.626 E-.10609
G1 X124.578 Y81.626 E-.4456
;WIPE_END
G1 Z.6 F720
G1 X118.816 Y79.832 F10800
G1 Z.2 F720
G1 E.8 F2100
M204 S800
G1 F1200
G1 X118.396 Y80.079 E.01528
G1 X117.838 Y80.232 E.01814
G1 X117.306 Y80.197 E.01672
G1 X116.814 Y80.001 E.01661
G1 X116.696 Y79.932 E.00429
;WIDTH:0.44332
G1 X116.338 Y79.563 E.01712
G1 X116.086 Y78.893 E.02383
;WIDTH:0.410672
G1 X116.024 Y78.386 E.01562
;WIDTH:0.407461
G1 X116.082 Y77.885 E.01529
;WIDTH:0.438855
G1 X116.319 Y77.243 E.02253
G1 X116.696 Y76.833 E.01834
;WIDTH:0.419999
G1 X117.038 Y76.647 E.01221
G1 X117.535 Y76.528 E.01602
G1 X117.839 Y76.534 E.00953
G1 X118.343 Y76.653 E.01624
G1 X118.797 Y76.913 E.0164
G1 X119.178 Y77.311 E.01728
G1 X119.441 Y77.856 E.01897
G1 X119.517 Y78.37 E.01629
G1 X119.448 Y78.882 E.0162
G1 X119.21 Y79.406 E.01804
G1 X118.862 Y79.794 E.01634
M204 S1000
;WIPE_START
G1 F8640
G1 X118.816 Y79.832 E-.01378
G1 X118.396 Y80.079 E-.11251
G1 X117.838 Y80.232 E-.1336
G1 X117.306 Y80.197 E-.12311
G1 X116.814 Y80.001 E-.12229
G1 X116.696 Y79.932 E-.03156
G1 X116.338 Y79.563 E-.11871
G1 X116.118 Y78.977 E-.14444
;WIPE_END
G1 Z.6 F720
G1 X131.195 Y76.948 F10800
G1 Z.2 F720
G1 E.8 F2100
M204 S800
G1 F1200
G1 X131.379 Y76.796 E.00748
G1 X131.902 Y76.577 E.01778
G1 X132.452 Y76.529 E.01731
G1 X132.799 Y76.588 E.01104
G1 X133.304 Y76.833 E.0176
;WIDTH:0.441406
G1 X133.668 Y77.214 E.01746
G1 X133.913 Y77.869 E.02317
;WIDTH:0.410966
G1 X133.972 Y78.383 E.01583
;WIDTH:0.407746
G1 X133.918 Y78.88 E.01517
;WIDTH:0.438854
G1 X133.681 Y79.523 E.02256
G1 X133.304 Y79.932 E.01831
;WIDTH:0.419999
G1 X132.99 Y80.111 E.01133
G1 X132.46 Y80.237 E.01708
G1 X131.957 Y80.201 E.01581
G1 X131.444 Y80.01 E.01716
G1 X131.003 Y79.668 E.0175
G1 X130.666 Y79.185 E.01847
G1 X130.508 Y78.688 E.01635
G1 X130.499 Y78.135 E.01734
G1 X130.652 Y77.608 E.01721
G1 X130.95 Y77.15 E.01713
G1 X131.149 Y76.986 E.00809
M204 S1000
;WIPE_START
G1 F8640
G1 X131.195 Y76.948 E-.01378
G1 X131.379 Y76.796 E-.05511
G1 X131.902 Y76.577 E-.13092
G1 X132.452 Y76.529 E-.12748
G1 X132.799 Y76.588 E-.08127
G1 X133.304 Y76.833 E-.1296
G1 X133.668 Y77.214 E-.12167
G1 X133.881 Y77.782 E-.14017
;WIPE_END
G1 Z.6 F720
G1 X120.709 Y82.993 F10800
G1 Z.2 F720
G1 E.8 F2100
M204 S800
;TYPE:Perimeter
G1 F1200
G1 X119.955 Y82.928 E.02373
G1 X119.292 Y82.759 E.02145
G1 X118.598 Y82.455 E.02376
G1 X118.025 Y82.082 E.02144
G1 X117.441 Y81.543 E.02492
G1 X117.021 Y81.002 E.02147
G1 X116.66 Y80.345 E.0235
G1 X117.044 Y80.521 E.01324
G1 X117.275 Y80.573 E.00742
G1 X117.921 Y80.6 E.02027
G1 X118.525 Y80.439 E.0196
G1 X119.001 Y80.17 E.01714
G1 X119.405 Y79.763 E.01798
G1 X119.587 Y79.49 E.01029
G1 X119.821 Y78.938 E.0188
G1 X119.89 Y78.315 E.01965
G1 X119.814 Y77.801 E.01629
G1 X119.549 Y77.193 E.0208
G1 X119.364 Y76.958 E.00938
G1 X118.986 Y76.587 E.01661
G1 X118.479 Y76.301 E.01825
G1 X117.924 Y76.166 E.01791
G1 X117.536 Y76.151 E.01217
G1 X116.946 Y76.281 E.01894
G1 X116.679 Y76.4 E.00917
G1 X116.815 Y76.111 E.01001
G1 X117.231 Y75.47 E.02396
G1 X117.747 Y74.916 E.02374
G1 X118.289 Y74.495 E.02152
G1 X118.922 Y74.15 E.0226
G1 X119.637 Y73.904 E.02371
G1 X120.235 Y73.805 E.01901
G1 X120.725 Y73.77 E.0154
G1 X129.305 Y73.771 E.26902
G1 X130.01 Y73.831 E.02218
G1 X130.709 Y74.006 E.02259
G1 X131.402 Y74.31 E.02373
G1 X132.004 Y74.705 E.02258
G1 X132.535 Y75.194 E.02263
G1 X132.98 Y75.764 E.02267
G1 X133.34 Y76.42 E.02346
G1 X132.814 Y76.201 E.01786
G1 X132.425 Y76.152 E.01229
G1 X131.765 Y76.225 E.02082
G1 X131.143 Y76.502 E.02135
G1 X130.638 Y76.94 E.02096
G1 X130.291 Y77.497 E.02058
G1 X130.122 Y78.135 E.02069
G1 X130.149 Y78.802 E.02093
G1 X130.384 Y79.454 E.02173
G1 X130.768 Y79.962 E.01997
G1 X131.307 Y80.361 E.02103
G1 X131.93 Y80.577 E.02067
G1 X132.448 Y80.614 E.01628
G1 X133.019 Y80.493 E.0183
G1 X133.319 Y80.366 E.01021
G1 X133.168 Y80.687 E.01112
G1 X132.769 Y81.296 E.02283
G1 X132.279 Y81.827 E.02265
G1 X131.711 Y82.271 E.0226
M73 Q6 S12
G1 X131.078 Y82.615 E.02259
