; generated by PrusaSlicer 2.9.4 on 2026-06-22 at 15:20:55 UTC

; 

; external perimeters extrusion width = 0.45mm
; perimeters extrusion width = 0.45mm
; infill extrusion width = 0.45mm
; solid infill extrusion width = 0.45mm
; top infill extrusion width = 0.40mm
; support material extrusion width = 0.35mm
; first layer extrusion width = 0.42mm

; external perimeters extrusion width = 0.45mm
; perimeters extrusion width = 0.45mm
; infill extrusion width = 0.45mm
; solid infill extrusion width = 0.45mm
; top infill extrusion width = 0.40mm
; support material extrusion width = 0.35mm
; first layer extrusion width = 0.42mm

M73 P0 R33
M73 Q0 S33
M201 X1000 Y1000 Z200 E5000 ; sets maximum accelerations, mm/sec^2
M203 X200 Y200 Z12 E120 ; sets maximum feedrates, mm / sec
M204 S1250 T1250 ; sets acceleration (S) and retract acceleration (R), mm/sec^2
M205 X8.00 Y8.00 Z0.40 E4.50 ; sets the jerk limits, mm/sec
M205 S0 T0 ; sets the minimum extruding and travel feed rate, mm/sec

; printing object upper part_portapiles_250606_5.8P_0tol id:1 copy 0
; stop printing object upper part_portapiles_250606_5.8P_0tol id:1 copy 0
; printing object adaptador_portapiles_250606_5.8P_0tol id:0 copy 0
; stop printing object adaptador_portapiles_250606_5.8P_0tol id:0 copy 0

;TYPE:Custom
M862.3 P "MK3S" ; printer model check
M862.1 P0.4 ; nozzle diameter check
M115 U3.10.1 ; tell printer latest fw version
G90 ; use absolute coordinates
M83 ; extruder relative mode
M104 S215 ; set extruder temp
M140 S60 ; set bed temp
M190 S60 ; wait for bed temp
M109 S215 ; wait for extruder temp
G28 W ; home all without mesh bed level
G80 ; mesh bed leveling
G1 Z0.2 F720
G1 Y-3 F1000 ; go outside print area
G92 E0
G1 X60 E9 F1000 ; intro line
G1 X100 E12.5 F1000 ; intro line
G92 E0
M221 S95

; Don't change E values below. Excessive value can damage the printer.
M907 E430 ; set extruder motor current
G21 ; set units to millimeters
G90 ; use absolute coordinates
M83 ; use relative distances for extrusion
M900 K0.05 ; Filament gcode LA 1.5
M900 K30 ; Filament gcode LA 1.0
M107
;LAYER_CHANGE
;Z:0.2
;HEIGHT:0.2
G1 E-.8 F2100
G1 Z.6 F720
G1 X106.216 Y47.549 F10800
G1 Z.2 F720
G1 E.8 F2100
M204 S800
;TYPE:Skirt/Brim
;WIDTH:0.42
G1 F1200
G1 X106.792 Y46.27 E.04398
G1 X107.546 Y45.07 E.04444
G1 X108.654 Y43.803 E.05277
G1 X109.71 Y42.913 E.0433
G1 X120.004 Y35.268 E.40204
G1 X121.432 Y34.449 E.05162
G1 X122.594 Y34.139 E.03771
G1 X123.764 Y34.029 E.03685
G1 X127.623 Y34.071 E.121
G1 X129.179 Y34.453 E.05024
G1 X129.862 Y34.785 E.02381
G1 X131.008 Y35.616 E.04438
G1 X141.01 Y43.492 E.39916
G1 X142.181 Y44.717 E.05313
G1 X143.015 Y45.921 E.04592
G1 X143.784 Y47.549 E.05645
G1 X144.248 Y49.288 E.05643
G1 X144.394 Y50.982 E.05331
G1 X144.392 Y69.888 E.59278
G1 X142.451 Y114.5 E1.4001
G1 X142.333 Y115.784 E.04043
G1 X142.116 Y116.704 E.02964
G1 X141.653 Y117.901 E.04024
G1 X140.887 Y119.173 E.04656
G1 X140.283 Y119.9 E.02964
G1 X139.335 Y120.765 E.04024
G1 X138.555 Y121.299 E.02964
G1 X137.218 Y121.944 E.04654
G1 X135.983 Y122.295 E.04026
G1 X134.405 Y122.453 E.04972
G1 X115.595 Y122.453 E.58977
G1 X114.216 Y122.333 E.0434
G1 X113.296 Y122.116 E.02964
G1 X111.918 Y121.562 E.04657
G1 X110.827 Y120.887 E.04023
G1 X109.717 Y119.9 E.04657
G1 X108.913 Y118.88 E.04072
G1 X108.347 Y117.901 E.03546
G1 X107.884 Y116.704 E.04024
G1 X107.593 Y115.248 E.04655
G1 X105.608 Y69.888 E1.42359
G1 X105.606 Y50.982 E.59278
G1 X105.752 Y49.288 E.05331
G1 X106.201 Y47.607 E.05455
M204 S1000
;WIPE_START
G1 F8640
G1 X106.216 Y47.549 E-.01383
G1 X106.792 Y46.27 E-.32389
G1 X107.546 Y45.07 E-.32724
G1 X107.931 Y44.63 E-.13504
;WIPE_END
G1 Z.6 F720
; printing object adaptador_portapiles_250606_5.8P_0tol id:0 copy 0
G1 X131.076 Y78.359 F10800
G1 Z.2 F720
G1 E.8 F2100
M204 S800
;TYPE:Support material
G1 F1200
G1 X131.332 Y79.699 E.04277
G1 X131.196 Y80.425 E.02316
G1 X131.07 Y81.06 E.0203
G1 X130.34 Y82.207 E.04263
G1 X129.23 Y83.01 E.04296
G1 X128.191 Y83.273 E.0336
G1 X127.211 Y83.682 E.0333
G1 X126.536 Y83.788 E.02142
G1 X125.743 Y83.746 E.0249
G1 X125.059 Y84.241 E.02647
G1 X123.731 Y84.578 E.04296
G1 X122.373 Y84.401 E.04294
G1 X121.175 Y83.736 E.04296
G1 X120.802 Y83.28 E.01847
G1 X119.844 Y82.747 E.03437
G1 X118.977 Y81.688 E.04291
G1 X118.592 Y80.478 E.03981
G1 X118.592 Y79.575 E.02831
G1 X118.714 Y78.962 E.0196
G1 X118.983 Y78.267 E.02337
G1 X119.399 Y77.673 E.02274
G1 X130.639 Y77.673 E.35242
G1 X131.045 Y78.311 E.02371
M73 P1 R33
M73 Q1 S33
M204 S1000
G1 X130.866 Y81.064 F10800
M204 S800
G1 F1200
G1 X130.866 Y79.068 E.06258
G1 X130.754 Y78.486 E.01858
G1 X130.447 Y78.012 E.01771
G1 X130.447 Y81.407 E.10645
G1 X130.028 Y82.014 E.02313
G1 X130.028 Y78.012 E.12548
G1 X129.609 Y78.012 E.01314
G1 X129.609 Y82.317 E.13498
G1 X129.19 Y82.62 E.01621
G1 X129.19 Y78.012 E.14448
G1 X128.771 Y78.012 E.01314
G1 X128.771 Y82.776 E.14937
G1 X128.352 Y82.882 E.01355
G1 X128.352 Y78.012 E.1527
G1 X127.933 Y78.012 E.01314
G1 X127.933 Y83.035 E.15749
G1 X127.514 Y83.199 E.01411
G1 X127.514 Y78.012 E.16263
G1 X127.095 Y78.012 E.01314
G1 X127.095 Y83.357 E.16759
G1 X126.676 Y83.422 E.01329
G1 X126.676 Y78.012 E.16963
G1 X126.257 Y78.012 E.01314
G1 X126.257 Y83.433 E.16997
G1 X125.838 Y83.411 E.01316
G1 X125.838 Y78.012 E.16928
G1 X125.419 Y78.012 E.01314
G1 X125.419 Y83.562 E.17402
G1 X125 Y83.865 E.01621
G1 X125 Y78.012 E.18352
G1 X124.581 Y78.012 E.01314
G1 X124.581 Y84.012 E.18813
G1 X124.162 Y84.118 E.01355
G1 X124.162 Y78.012 E.19145
G1 X123.743 Y78.012 E.01314
G1 X123.743 Y84.225 E.1948
G1 X123.324 Y84.183 E.0132
G1 X123.324 Y78.012 E.19349
G1 X122.905 Y78.012 E.01314
G1 X122.905 Y84.128 E.19176
G1 X122.486 Y84.073 E.01325
G1 X122.486 Y78.012 E.19004
G1 X122.067 Y78.012 E.01314
G1 X122.067 Y83.843 E.18283
G1 X121.648 Y83.61 E.01503
G1 X121.648 Y78.012 E.17552
G1 X121.229 Y78.012 E.01314
G1 X121.229 Y83.266 E.16474
G1 X121.024 Y83.015 E.01016
G1 X120.81 Y82.896 E.00768
G1 X120.81 Y78.012 E.15313
G1 X120.391 Y78.012 E.01314
G1 X120.391 Y82.663 E.14583
G1 X119.972 Y82.368 E.01607
G1 X119.972 Y78.012 E.13658
G1 X119.553 Y78.025 E.01314
G1 X119.553 Y81.856 E.12012
G1 X119.281 Y81.523 E.01348
G1 X119.134 Y81.063 E.01514
G1 X119.134 Y78.347 E.08516
M204 S1000
;WIPE_START
G1 F8640
G1 X119.134 Y81.063 E-.62713
G1 X119.281 Y81.523 E-.11151
G1 X119.449 Y81.729 E-.06136
;WIPE_END
G1 Z.6 F720
G1 X127.81 Y36.339 F10800
G1 Z.2 F720
G1 E.8 F2100
M204 S800
G1 F1200
G1 X128.58 Y36.558 E.0251
G1 X129.656 Y37.337 E.04165
G1 X130.392 Y38.493 E.04297
G1 X130.649 Y39.839 E.04297
G1 X130.392 Y41.185 E.04297
G1 X129.59 Y42.389 E.04536
G1 X129.541 Y42.653 E.00842
G1 X129.258 Y43.102 E.01664
G1 X119.551 Y43.102 E.30436
G1 X119.214 Y42.246 E.02884
M73 P1 R32
G1 X119.1 Y41.634 E.01952
G1 X119.1 Y40.887 E.02342
G1 X119.231 Y40.273 E.01968
G1 X119.498 Y39.584 E.02317
G1 X120.141 Y38.75 E.03302
G1 X120.37 Y38.159 E.01987
G1 X120.718 Y37.639 E.01962
G1 X121.22 Y37.088 E.02337
G1 X122.407 Y36.408 E.04289
G1 X123.021 Y36.286 E.01963
G1 X123.764 Y36.217 E.0234
G1 X125.149 Y36.558 E.04472
G1 X125.307 Y36.673 E.00613
G1 X125.839 Y36.408 E.01864
G1 X126.452 Y36.286 E.0196
G1 X127.196 Y36.217 E.02343
G1 X127.755 Y36.328 E.01787
M204 S1000
G1 X130.028 Y41.442 F10800
M204 S800
G1 F1200
G1 X130.028 Y38.553 E.09058
G1 X129.609 Y37.895 E.02446
G1 X129.609 Y41.784 E.12194
G1 X129.281 Y42.194 E.01646
G1 X129.19 Y42.574 E.01225
G1 X129.19 Y37.419 E.16163
G1 X128.771 Y37.115 E.01623
G1 X128.771 Y42.763 E.17709
G1 X128.352 Y42.763 E.01314
G1 X128.352 Y36.846 E.18552
G1 X127.933 Y36.727 E.01366
G1 X127.933 Y42.763 E.18925
G1 X127.514 Y42.763 E.01314
G1 X127.514 Y36.626 E.19242
G1 X127.095 Y36.567 E.01327
G1 X127.095 Y42.763 E.19427
G1 X126.676 Y42.763 E.01314
G1 X126.676 Y36.606 E.19305
G1 X126.257 Y36.671 E.01329
G1 X126.257 Y42.763 E.19101
G1 X125.838 Y42.763 E.01314
G1 X125.838 Y36.788 E.18734
G1 X125.419 Y36.996 E.01467
G1 X125.419 Y42.763 E.18082
G1 X125 Y42.763 E.01314
G1 X125 Y36.87 E.18477
G1 X124.581 Y36.75 E.01367
G1 X124.581 Y42.763 E.18853
G1 X124.162 Y42.763 E.01314
G1 X124.162 Y36.642 E.19192
G1 X123.743 Y36.56 E.01339
G1 X123.743 Y42.763 E.19449
G1 X123.324 Y42.763 E.01314
G1 X123.324 Y36.599 E.19327
G1 X123.07 Y36.622 E.008
G1 X122.905 Y36.655 E.00528
G1 X122.905 Y42.763 E.19151
G1 X122.486 Y42.763 E.01314
G1 X122.486 Y36.748 E.1886
G1 X122.067 Y36.957 E.01468
G1 X122.067 Y42.763 E.18204
G1 X121.648 Y42.763 E.01314
G1 X121.648 Y37.21 E.17411
G1 X121.229 Y37.581 E.01755
G1 X121.229 Y42.763 E.16248
G1 X120.81 Y42.763 E.01314
G1 X120.81 Y38.111 E.14586
G1 X120.391 Y38.979 E.03022
G1 X120.391 Y42.763 E.11864
G1 X119.972 Y42.763 E.01314
G1 X119.972 Y39.493 E.10253
G1 X119.553 Y40.388 E.03099
G1 X119.553 Y42.652 E.07099
M204 S1000
;WIPE_START
G1 F8640
G1 X119.553 Y40.388 E-.52276
G1 X119.972 Y39.493 E-.22818
G1 X119.972 Y39.705 E-.04906
;WIPE_END
G1 Z.6 F720
G1 X136.113 Y56.902 F10800
G1 Z.2 F720
G1 E.8 F2100
M73 Q2 S33
M204 S800
;TYPE:Perimeter
;WIDTH:0.419999
G1 F1200
M73 P2 R32
G1 X136.347 Y57.747 E.02749
G1 X136.505 Y58.531 E.02508
G1 X136.615 Y59.445 E.02886
G1 X136.653 Y60.365 E.02887
G1 X136.619 Y61.285 E.02887
G1 X136.512 Y62.2 E.02888
G1 X136.357 Y62.988 E.02518
G1 X136.083 Y63.986 E.03245
G1 X135.763 Y64.855 E.02904
G1 X135.376 Y65.691 E.02888
G1 X134.773 Y66.724 E.0375
G1 X134.481 Y67.161 E.01648
G1 X134.071 Y67.685 E.02086
G1 X133.334 Y68.524 E.03501
G1 X132.855 Y68.987 E.02089
G1 X131.871 Y69.799 E.04
G1 X131.145 Y70.289 E.02746
G1 X130.686 Y70.55 E.01656
G1 X129.509 Y71.133 E.04118
G1 X128.646 Y71.456 E.02889
G1 X127.64 Y71.735 E.03273
G1 X126.856 Y71.892 E.02507
G1 X125.943 Y72.003 E.02884
G1 X125.022 Y72.041 E.0289
G1 X124.102 Y72.006 E.02887
G1 X123.187 Y71.899 E.02888
G1 X122.4 Y71.744 E.02515
G1 X121.401 Y71.471 E.03247
G1 X120.532 Y71.15 E.02905
G1 X119.696 Y70.764 E.02887
G1 X118.893 Y70.312 E.02889
G1 X118.366 Y69.962 E.01984
G1 X117.408 Y69.227 E.03786
G1 X116.98 Y68.83 E.0183
G1 X116.188 Y68.012 E.0357
G1 X115.615 Y67.295 E.02878
G1 X115.31 Y66.845 E.01704
G1 X114.889 Y66.165 E.02508
G1 X114.624 Y65.691 E.01703
G1 X114.254 Y64.896 E.02749
G1 X113.932 Y64.033 E.02888
G1 X113.653 Y63.027 E.03273
G1 X113.495 Y62.244 E.02505
G1 X113.385 Y61.33 E.02886
G1 X113.347 Y60.41 E.02887
G1 X113.381 Y59.489 E.0289
G1 X113.488 Y58.574 E.02888
G1 X113.643 Y57.787 E.02515
G1 X113.917 Y56.789 E.03245
G1 X114.237 Y55.92 E.02904
G1 X114.624 Y55.084 E.02888
G1 X114.884 Y54.62 E.01668
G1 X115.222 Y54.061 E.02048
G1 X115.589 Y53.516 E.0206
G1 X116.391 Y52.543 E.03954
G1 X116.732 Y52.176 E.01571
G1 X117.373 Y51.578 E.02749
G1 X118.366 Y50.813 E.0393
G1 X118.857 Y50.485 E.01851
G1 X119.4 Y50.177 E.01957
G1 X120.491 Y49.642 E.0381
G1 X121.354 Y49.319 E.02889
G1 X122.24 Y49.066 E.02889
G1 X123.143 Y48.883 E.02889
G1 X124.057 Y48.772 E.02887
G1 X124.978 Y48.734 E.0289
G1 X125.898 Y48.769 E.02887
G1 X126.813 Y48.876 E.02888
G1 X127.717 Y49.055 E.02889
G1 X128.603 Y49.305 E.02886
G1 X129.356 Y49.581 E.02515
G1 X130.3 Y50.009 E.0325
G1 X131.107 Y50.463 E.02903
G1 X131.623 Y50.809 E.01948
G1 X132.593 Y51.549 E.03825
G1 X133.03 Y51.95 E.0186
G1 X133.623 Y52.561 E.0267
G1 X134.456 Y53.579 E.04124
G1 X134.902 Y54.245 E.02513
G1 X135.257 Y54.869 E.02251
G1 X135.746 Y55.879 E.03518
G1 X136.068 Y56.742 E.02888
G1 X136.097 Y56.844 E.00332
M204 S1000
G1 X135.751 Y57.004 F10800
M204 S800
;TYPE:External perimeter
G1 F1200
G1 X135.984 Y57.847 E.02742
G1 X136.135 Y58.605 E.02423
G1 X136.241 Y59.489 E.02792
G1 X136.277 Y60.38 E.02796
G1 X136.242 Y61.271 E.02796
G1 X136.137 Y62.156 E.02794
G1 X135.987 Y62.914 E.02423
G1 X135.72 Y63.886 E.03161
G1 X135.409 Y64.724 E.02803
G1 X135.034 Y65.532 E.02793
G1 X134.46 Y66.514 E.03566
G1 X134.166 Y66.953 E.01657
G1 X133.774 Y67.452 E.0199
G1 X133.058 Y68.267 E.03401
G1 X132.599 Y68.71 E.02
G1 X132.037 Y69.187 E.02311
G1 X131.462 Y69.62 E.02257
G1 X130.934 Y69.976 E.01997
G1 X130.417 Y70.269 E.01863
G1 X129.35 Y70.791 E.03724
G1 X128.514 Y71.102 E.02797
G1 X127.54 Y71.371 E.03168
G1 X126.783 Y71.522 E.0242
G1 X125.898 Y71.628 E.02795
G1 X125.007 Y71.664 E.02796
G1 X124.117 Y71.629 E.02793
G1 X123.232 Y71.525 E.02794
G1 X122.473 Y71.374 E.02426
G1 X121.501 Y71.107 E.03161
G1 X120.664 Y70.797 E.02799
G1 X119.855 Y70.422 E.02796
G1 X119.079 Y69.984 E.02794
M73 Q2 S32
G1 X118.576 Y69.648 E.01897
G1 X117.642 Y68.931 E.03692
G1 X117.237 Y68.554 E.01735
G1 X116.465 Y67.756 E.03481
G1 X115.91 Y67.06 E.02791
G1 X115.622 Y66.634 E.01612
G1 X115.218 Y65.98 E.0241
G1 X114.966 Y65.532 E.01612
G1 X114.596 Y64.737 E.02749
G1 X114.285 Y63.902 E.02794
G1 X114.016 Y62.927 E.03171
G1 X113.865 Y62.17 E.0242
G1 X113.759 Y61.285 E.02795
G1 X113.723 Y60.395 E.02793
G1 X113.758 Y59.504 E.02796
G1 X113.863 Y58.619 E.02794
G1 X114.013 Y57.861 E.02423
G1 X114.28 Y56.889 E.03161
G1 X114.591 Y56.051 E.02803
G1 X114.966 Y55.243 E.02793
G1 X115.212 Y54.805 E.01575
G1 X115.534 Y54.271 E.01955
G1 X115.902 Y53.727 E.02059
G1 X116.668 Y52.799 E.03773
G1 X117.237 Y52.221 E.02543
G1 X117.63 Y51.853 E.01688
G1 X118.576 Y51.127 E.03739
G1 X119.067 Y50.798 E.01853
G1 X119.585 Y50.505 E.01866
G1 X120.65 Y49.984 E.03717
G1 X121.486 Y49.673 E.02797
G1 X122.343 Y49.428 E.02795
G1 X123.217 Y49.253 E.02795
G1 X124.102 Y49.147 E.02795
G1 X124.993 Y49.111 E.02796
G1 X125.883 Y49.145 E.02793
G1 X126.768 Y49.25 E.02794
G1 X127.643 Y49.425 E.02798
G1 X128.5 Y49.668 E.02793
G1 X129.226 Y49.935 E.02425
G1 X130.143 Y50.353 E.0316
G1 X130.921 Y50.791 E.02799
G1 X131.412 Y51.122 E.01857
G1 X132.358 Y51.844 E.03731
G1 X132.774 Y52.227 E.01773
G1 X133.348 Y52.818 E.02583
G1 X134.159 Y53.812 E.04022
G1 X134.589 Y54.454 E.02423
G1 X134.929 Y55.055 E.02165
G1 X135.404 Y56.038 E.03423
G1 X135.715 Y56.873 E.02794
G1 X135.735 Y56.946 E.00237
M204 S1000
;WIPE_START
G1 F8640
G1 X135.751 Y57.004 E-.01389
G1 X135.984 Y57.847 E-.20195
G1 X136.135 Y58.605 E-.17846
G1 X136.241 Y59.489 E-.20558
G1 X136.276 Y60.355 E-.20012
;WIPE_END
G1 Z.6 F720
G1 X111.902 Y70.944 F10800
G1 Z.2 F720
G1 E.8 F2100
M204 S800
G1 F1200
G1 X112.173 Y70.878 E.00875
G1 X112.645 Y70.895 E.01481
G1 X113.131 Y71.023 E.01576
G1 X113.614 Y71.302 E.01749
G1 X114.036 Y71.745 E.01918
G1 X114.309 Y72.293 E.0192
G1 X114.409 Y72.897 E.0192
G1 X114.326 Y73.504 E.01921
G1 X114.068 Y74.06 E.01922
G1 X113.657 Y74.514 E.0192
G1 X113.131 Y74.828 E.01921
G1 X112.568 Y74.965 E.01817
G1 X112.063 Y74.955 E.01584
;WIDTH:0.462146
G1 X111.81 Y74.91 E.00896
;WIDTH:0.504292
G1 X111.558 Y74.865 E.00982
G1 X111.322 Y74.714 E.01075
;WIDTH:0.478533
G1 X111.087 Y74.563 E.01012
;WIDTH:0.454517
G1 X110.726 Y74.189 E.01779
;WIDTH:0.479911
G1 X110.578 Y73.955 E.01006
;WIDTH:0.505305
G1 X110.43 Y73.72 E.01068
G1 X110.352 Y73.509 E.00865
;WIDTH:0.481645
G1 X110.326 Y73.231 E.01019
;WIDTH:0.450822
G1 X110.299 Y72.953 E.00947
;WIDTH:0.419999
G1 X110.382 Y72.346 E.01921
G1 X110.64 Y71.791 E.01919
G1 X111.051 Y71.336 E.01922
G1 X111.577 Y71.023 E.01919
G1 X111.844 Y70.958 E.00862
M204 S1000
;WIPE_START
G1 F8640
G1 X111.902 Y70.944 E-.01378
G1 X112.173 Y70.878 E-.0644
G1 X112.645 Y70.895 E-.10906
G1 X113.131 Y71.023 E-.11605
G1 X113.614 Y71.302 E-.1288
G1 X114.036 Y71.745 E-.14127
G1 X114.309 Y72.293 E-.14137
G1 X114.369 Y72.657 E-.08527
;WIPE_END
G1 Z.6 F720
G1 X110.53 Y48.728 F10800
G1 Z.2 F720
G1 E.8 F2100
M204 S800
G1 F1200
G1 X110.399 Y48.482 E.00874
G1 X110.299 Y47.878 E.0192
;WIDTH:0.452586
G1 X110.325 Y47.572 E.01046
;WIDTH:0.485172
G1 X110.35 Y47.266 E.01129
;WIDTH:0.505305
G1 X110.43 Y47.055 E.00868
G1 X110.578 Y46.82 E.01068
;WIDTH:0.479911
G1 X110.726 Y46.585 E.01009
;WIDTH:0.454517
G1 X111.087 Y46.211 E.01779
;WIDTH:0.478378
G1 X111.321 Y46.061 E.01006
;WIDTH:0.503982
G1 X111.556 Y45.911 E.01069
G1 X111.865 Y45.857 E.01203
;WIDTH:0.461991
G1 X112.173 Y45.803 E.0109
;WIDTH:0.419999
G1 X112.645 Y45.819 E.01481
G1 X113.131 Y45.947 E.01576
G1 X113.613 Y46.226 E.01746
G1 X114.068 Y46.715 E.02094
G1 X114.309 Y47.217 E.01746
G1 X114.409 Y47.821 E.0192
G1 X114.326 Y48.428 E.01921
G1 X114.072 Y48.975 E.01891
G1 X113.687 Y49.406 E.01812
G1 X113.131 Y49.752 E.02053
G1 X112.535 Y49.897 E.01923
G1 X112.063 Y49.88 E.01481
