; HEADER_BLOCK_START
; generated by OrcaSlicer 2.3.1 on 2026-06-22 at 18:17:17
; total layer number: 30
; filament_density: 1.27,1.27,1.27,1.27
; filament_diameter: 1.75,1.75,1.75,1.75
; max_z_height: 6.00
; HEADER_BLOCK_END

; THUMBNAIL_BLOCK_START

;
; THUMBNAIL_BLOCK_END

; THUMBNAIL_BLOCK_START

;
; THUMBNAIL_BLOCK_END

; external perimeters extrusion width = 0.42mm
; perimeters extrusion width = 0.45mm
; infill extrusion width = 0.45mm
; solid infill extrusion width = 0.42mm
; top infill extrusion width = 0.42mm
; support material extrusion width = 0.42mm
; first layer extrusion width = 0.50mm

; external perimeters extrusion width = 0.42mm
; perimeters extrusion width = 0.45mm
; infill extrusion width = 0.45mm
; solid infill extrusion width = 0.42mm
; top infill extrusion width = 0.42mm
; support material extrusion width = 0.42mm
; first layer extrusion width = 0.50mm

; EXECUTABLE_BLOCK_START
M73 P0 R11
M106 S0
M106 P2 S0
;TYPE:Custom
;===== machine: PR2 ========================
;===== date: 20250717 =====================
PRINT_START
;===== 预热热床和第一个挤出头 =================
M140 S55
M104 T0 S140

;===== 粗回零 =================
G28 X Y
T0
M109 T0 S140
G28 Z
G90
G0 Z10 F10000
MOVE_TO_DISCARD_FILAMENT_POSITION
M109 S170
ROUGHLY_CLEAN_NOZZLE_WITH_DISCARD
M104 S130
G4 P2000
ROUGHLY_CLEAN_NOZZLE
MOVE_TO_XY_IDLE_POSITION_EXTRUDER

;===== 检测钢板 =================
DETECT_BED_PLATE
MOVE_TO_XY_IDLE_POSITION_EXTRUDER

;===== 自动进料  ======================
SM_PRINT_AUTO_FEED EXTRUDER=0
SM_PRINT_AUTO_FEED EXTRUDER=1
SM_PRINT_AUTO_FEED EXTRUDER=2
SM_PRINT_AUTO_FEED EXTRUDER=3

;===== 挤出流量  ======================

SM_PRINT_FLOW_CALIBRATE INDEX=0 TARGET_TEMP=220





;===== 取出第一个挤出头 =================
T0
SET_VELOCITY_LIMIT ACCEL=10000
M204 S10000

;===== 深度清洁喷嘴 =================
G90
G0 Z10 F10000
ROUGHLY_CLEAN_NOZZLE_WITH_DISCARD
G0 Z5 F10000
FINELY_CLEAN_NOZZLE_STAGE_1
G0 Z5 F10000
ROUGHLY_CLEAN_NOZZLE
G0 Z5 F10000
FINELY_CLEAN_NOZZLE_STAGE_2
M83

;===== 第一个挤出头降温 =================
M109 S130
M190 S55
M106 S0
G90
G0 Z5 F10000
MOVE_TO_DISCARD_FILAMENT_POSITION
INNER_CUTOFF_BASE_DISCARD
INNER_ROUGHLY_CLEAN_NOZZLE_BASE_DISCARD
INNER_ROUGHLY_CLEAN_NOZZLE_BASE_DISCARD
MOVE_TO_XY_IDLE_POSITION_EXTRUDER

;===== 精回零 =================
G28 Z
;===== 热床调平 =================
; Always pass `ADAPTIVE_MARGIN=0` because Orca has already handled `adaptive_bed_mesh_margin` internally
; Make sure to set ADAPTIVE to 0 otherwise Klipper will use it's own adaptive bed mesh logic
BED_MESH_CALIBRATE mesh_min=116.195,109.773 mesh_max=153.805,197.238 ALGORITHM=bicubic PROBE_COUNT=4,4 ADAPTIVE=0 ADAPTIVE_MARGIN=0

;BED_MESH_CALIBRATE PROBE_COUNT=7,7


;======== 预挤出/划线 ================









SM_PRINT_START_LINE INDEX=0 TARGET_TEMP=220

M109 S220 T0
M106 S0

TIMELAPSE_START
G90
G21
M83 ; use relative distances for extrusion
; Filament gcode
T0
M106 S0
M106 P2 S0
;LAYER_CHANGE
;Z:0.2
;HEIGHT:0.2
;BEFORE_LAYER_CHANGE
;0.2
G92 E0
TIMELAPSE_TAKE_FRAME
G1 E-.8 F2400
;AFTER_LAYER_CHANGE
;0.2
;_SET_FAN_SPEED_CHANGING_LAYER
SET_VELOCITY_LIMIT ACCEL=500 ACCEL_TO_DECEL=250
; printing object adaptador id:15 copy 0
G1 X130.429 Y114.036 F30000
G1 Z.6
G1 Z.2
G1 E.8 F2100
;TYPE:Support
;WIDTH:0.5
G1 F3000
G1 X130.429 Y117.333 E.1228
G1 X130.937 Y117.333 E.01892
G1 X130.937 Y113.824 E.13071
G3 X131.445 Y113.514 I.728 J.623 E.02252
G1 X131.445 Y117.333 E.14224
G1 X131.953 Y117.333 E.01892
G1 X131.953 Y113.075 E.1586
G3 X132.461 Y112.684 I1.603 J1.556 E.02396
G1 X132.461 Y117.333 E.17317
G1 X132.969 Y117.333 E.01892
G1 X132.969 Y112.497 E.18014
G3 X133.476 Y112.437 I.35 J.788 E.01934
G1 X133.476 Y117.333 E.18237
G1 X133.984 Y117.333 E.01892
G1 X133.984 Y112.516 E.17941
G3 X134.492 Y112.755 I-.056 J.778 E.02138
G1 X134.492 Y117.333 E.17052
G1 X135 Y117.333 E.01892
G1 X135 Y113.076 E.15856
G1 X135.035 Y113.099 E.00156
G1 X135.508 Y112.744 E.022
G1 X135.508 Y117.333 E.17093
G1 X136.016 Y117.333 E.01892
G1 X136.016 Y112.526 E.17906
G3 X136.524 Y112.427 I.39 J.655 E.01966
G1 X136.524 Y117.333 E.18272
G1 X137.031 Y117.333 E.01892
G1 X137.031 Y112.498 E.18008
G3 X137.539 Y112.698 I-.005 J.759 E.02079
G1 X137.539 Y117.333 E.17266
G1 X138.047 Y117.333 E.01892
G1 X138.047 Y113.072 E.15873
G2 X138.555 Y113.541 I.719 J-.268 E.02672
G1 X138.555 Y117.333 E.14125
G1 X139.063 Y117.333 E.01892
G1 X139.063 Y113.864 E.12922
G1 X139.571 Y114.449 E.02886
G1 X139.571 Y117.508 E.11393
G1 X136.906 Y112.054 F30000
G1 F3000
G1 X137.468 Y112.166 E.02134
G1 X138.274 Y112.676 E.03551
G1 X138.543 Y113.066 E.01766
G1 X139.229 Y113.44 E.0291
G1 X139.878 Y114.13 E.0353
G3 X139.627 Y117.745 I-2.602 J1.635 E.14433
G1 X130.185 Y117.745 E.35169
G3 X131.456 Y113.049 I2.396 J-1.871 E.21004
G3 X135.015 Y112.599 I1.983 J1.381 E.15059
G1 X135.513 Y112.226 E.02316
G1 X136.419 Y112.003 E.03477
G1 X136.838 Y112.047 E.01568
G1 E-.8 F2400
G1 X137.435 Y119.656 Z.6 F30000
M73 P1 R11
G1 X140.072 Y153.276 Z.6
G1 Z.2
G1 E.8 F2100
G1 F3000
G1 X139.676 Y152.255 E.04079
G1 X130.103 Y152.255 E.35655
G1 X129.467 Y153.09 E.03907
G1 X129.321 Y153.97 E.03325
G2 X131.465 Y157.138 I3.05 J.245 E.15391
G1 X132.359 Y157.774 E.04086
G1 X133.315 Y158.009 E.03668
G1 X134.288 Y157.851 E.03669
G1 X134.997 Y157.403 E.03125
G2 X136.488 Y158.003 I1.68 J-2.022 E.06084
G1 X137.42 Y157.851 E.03517
G1 X138.252 Y157.324 E.03669
G1 X138.659 Y156.734 E.0267
G2 X140.097 Y153.34 I-1.513 J-2.642 E.14745
G1 X139.571 Y155.543 F30000
G1 F3000
G1 X139.571 Y153.122 E.09016
G1 X139.394 Y152.667 E.01819
G1 X139.063 Y152.667 E.01234
G1 X139.063 Y155.878 E.1196
G3 X138.555 Y156.307 I-1.236 J-.948 E.02495
G1 X138.555 Y152.667 E.13557
G1 X138.047 Y152.667 E.01892
G1 X138.047 Y156.897 E.15758
G1 X137.961 Y157.022 E.00563
G1 X137.539 Y157.289 E.0186
G1 X137.539 Y152.667 E.17215
G1 X137.031 Y152.667 E.01892
G1 X137.031 Y157.498 E.17993
G1 X136.524 Y157.58 E.01917
G1 X136.524 Y152.667 E.18301
G1 X136.016 Y152.667 E.01892
G1 X136.016 Y157.489 E.17963
G3 X135.508 Y157.272 I.063 J-.85 E.02095
G1 X135.508 Y152.667 E.17153
G1 X135 Y152.667 E.01892
G1 X135 Y156.914 E.15819
G1 X134.492 Y157.235 E.02238
G1 X134.492 Y152.667 E.17015
G1 X133.984 Y152.667 E.01892
G1 X133.984 Y157.484 E.17942
G1 X133.476 Y157.566 E.01917
G1 X133.476 Y152.667 E.1825
G1 X132.969 Y152.667 E.01892
G1 X132.969 Y157.5 E.18003
G3 X132.461 Y157.336 I-.061 J-.678 E.02043
G1 X132.461 Y152.667 E.17391
G1 X131.953 Y152.667 E.01892
G1 X131.953 Y156.955 E.1597
G2 X131.445 Y156.675 I-.882 J1.001 E.02177
G1 X131.445 Y152.667 E.14929
G1 X130.937 Y152.667 E.01892
G1 X130.937 Y156.439 E.1405
G1 X130.429 Y156.007 E.02482
G1 X130.429 Y152.667 E.12442
G1 X130.295 Y152.667 E.00502
G1 X129.921 Y153.168 E.02329
G1 X129.921 Y155.655 E.09263
G1 E-.8 F2400
G1 X137.086 Y153.024 Z.6 F30000
G1 X149.457 Y148.482 Z.6
G1 Z.2
G1 E.8 F2100
;TYPE:Outer wall
G1 F3000
G1 X149.332 Y148.691 E.00907
G3 X147.19 Y145.542 I-1.686 J-1.156 E.29599
G1 X147.493 Y145.496 E.0114
G3 X149.486 Y148.425 I.153 J2.039 E.15959
G1 X149.475 Y148.446 E.0009
G1 E-.8 F2400
G1 X149.519 Y140.814 Z.6 F30000
G1 X149.623 Y122.974 Z.6
G1 Z.2
M73 P2 R11
G1 E.8 F2100
G1 F3000
G1 X149.599 Y123.065 E.00348
G3 X146.898 Y120.556 I-1.954 J-.605 E.30759
G1 X147.19 Y120.466 E.0114
G3 X149.667 Y122.767 I.455 J1.994 E.1482
G1 X149.631 Y122.935 E.00641
G1 E-.8 F2400
G1 X147.804 Y130.346 Z.6 F30000
G1 X145.227 Y140.8 Z.6
G1 Z.2
G1 E.8 F2100
;TYPE:Inner wall
G1 F3000
G1 X145.001 Y141.188 E.01671
G3 X134.071 Y123.269 I-10.001 J-6.192 E1.78703
G1 X134.59 Y123.249 E.01938
G1 X135 Y123.233 E.01527
G3 X145.463 Y140.37 I0 J11.763 E.89608
G1 X145.246 Y140.765 E.01681
G1 X144.792 Y140.554 F30000
;TYPE:Outer wall
G1 F3000
G1 X144.578 Y140.921 E.01581
G3 X134.11 Y123.768 I-9.578 J-5.925 E1.71121
G1 X134.61 Y123.748 E.01864
G1 X135 Y123.733 E.01453
G3 X145.018 Y140.142 I0 J11.263 E.85801
G1 X144.811 Y140.519 E.01602
G1 E-.8 F2400
G1 X138.569 Y136.128 Z.6 F30000
G1 X119.863 Y122.969 Z.6
G1 Z.2
G1 E.8 F2100
;TYPE:Inner wall
G1 F3000
G2 X122.781 Y119.956 I2.491 J-.507 E.41117
G1 X122.754 Y119.752 E.00768
G3 X125.615 Y119.095 I2.915 J6.135 E.11023
G1 X144.437 Y119.097 E.70103
G3 X147.246 Y119.752 I-.083 J6.71 E.10829
G1 X147.219 Y119.956 E.00768
G2 X150.137 Y122.969 I.424 J2.509 E.41187
G1 X150.335 Y122.95 E.00738
G3 X150.905 Y125.615 I-6.086 J2.697 E.10223
G1 X150.905 Y144.385 E.69909
G3 X150.335 Y147.05 I-6.644 J-.03 E.10223
G1 X150.137 Y147.031 E.00738
G2 X147.219 Y150.044 I-2.491 J.507 E.41117
G1 X147.246 Y150.248 E.00768
G3 X144.385 Y150.905 I-2.915 J-6.135 E.11023
G1 X125.615 Y150.905 E.69909
M73 P3 R11
G3 X122.754 Y150.248 I.04 J-6.736 E.11025
G1 X122.781 Y150.044 E.00768
G2 X119.863 Y147.031 I-.427 J-2.506 E.41117
G1 X119.665 Y147.05 E.00738
G3 X119.095 Y144.385 I6.137 J-2.708 E.10222
G1 X119.095 Y125.615 E.69909
G3 X119.665 Y122.95 I6.644 J.03 E.10223
G1 X119.823 Y122.965 E.00589
G1 E-.8 F2400
G1 X121.392 Y120.661 Z.6 F30000
G1 Z.2
G1 E.8 F2100
;TYPE:Outer wall
G1 F3000
G1 X121.608 Y120.564 E.00882
G3 X122.201 Y120.421 I.787 J1.957 E.02279
G3 X120.742 Y121.211 I.161 J2.038 E.41479
G3 X121.334 Y120.698 I1.653 J1.31 E.02935
G1 X121.358 Y120.683 E.00107
G1 E-.8 F2400
G1 X121.372 Y128.315 Z.6 F30000
G1 X121.408 Y149.346 Z.6
G1 Z.2
G1 E.8 F2100
G1 F3000
G1 X121.331 Y149.307 E.00321
G3 X121.898 Y145.542 I1.023 J-1.771 E.18236
G1 X122.201 Y145.496 E.0114
G3 X121.607 Y149.44 I.153 J2.04 E.27354
G1 X121.444 Y149.363 E.00669
G1 E-.8 F2400
G1 X121.206 Y141.735 Z.6 F30000
G1 X120.551 Y120.744 Z.6
G1 Z.2
G1 E.8 F2100
G1 F3000
G1 X120.646 Y120.647 E.00502
G3 X125.604 Y118.595 I4.954 J4.953 E.20511
G1 X144.46 Y118.597 E.70231
G3 X151.405 Y125.604 I-.069 J7.014 E.40754
G1 X151.405 Y144.396 E.69994
G3 X144.396 Y151.405 I-7.005 J.004 E.41014
G1 X125.604 Y151.405 E.69994
G3 X118.595 Y144.396 I.005 J-7.015 E.40999
G1 X118.595 Y125.604 E.69994
G3 X120.408 Y120.897 I7.005 J-.004 E.1922
G1 X120.524 Y120.773 E.00632
G1 X120.22 Y121.556 F30000
;TYPE:Gap infill
;WIDTH:0.126259
G1 F3000
G1 X120.106 Y121.772 E.00166
;WIDTH:0.172009
G1 X120.06 Y121.879 E.00123
;WIDTH:0.215187
G1 X120.013 Y121.986 E.00164
;WIDTH:0.258364
G1 X119.966 Y122.093 E.00205
;WIDTH:0.287922
G2 X119.751 Y122.707 I8.171 J3.209 E.013
G1 X119.798 Y122.712 F30000
;WIDTH:0.44516
G1 F3000
G3 X120.027 Y121.792 I12.503 J2.63 E.03107
G1 E-.8 F2400
G1 X119.701 Y123.469 Z.6 F30000
G1 Z.2
G1 E.8 F2100
;WIDTH:0.106199
G1 F3000
G1 X119.822 Y123.679 E.00125
;WIDTH:0.104188
G1 X119.85 Y123.72 E.00025
G1 E-.8 F2400
G1 X121.397 Y120.351 Z.6 F30000
G1 Z.2
G1 E.8 F2100
;WIDTH:0.12307
G1 F3000
G1 X121.496 Y120.288 E.00076
;WIDTH:0.14189
G1 X121.584 Y120.24 E.00081
;WIDTH:0.179893
G1 X121.699 Y120.185 E.00142
;WIDTH:0.217384
G1 X121.813 Y120.13 E.00181
;WIDTH:0.238907
G1 X122.511 Y119.826 E.01216
G1 X122.519 Y119.887 F30000
M73 P4 R11
;WIDTH:0.402133
G1 F3000
G2 X121.531 Y120.207 I3.755 J13.251 E.03042
G1 E-.8 F2400
G1 X123.249 Y119.784 Z.6 F30000
G1 Z.2
G1 E.8 F2100
;WIDTH:0.105409
G1 F3000
G1 X123.421 Y119.871 E.00098
G1 E-.8 F2400
G1 X131.051 Y119.677 Z.6 F30000
G1 X145.37 Y119.313 Z.6
G1 Z.2
G1 E.8 F2100
;TYPE:Bottom surface
;WIDTH:0.503706
G1 F6300
G1 X146.09 Y120.032 E.03821
G2 X145.72 Y120.314 I.751 J1.367 E.01752
G1 X144.866 Y119.46 E.04537
G2 X144.194 Y119.44 I-.555 J7.275 E.02525
G1 X145.403 Y120.649 E.0642
G2 X145.139 Y121.036 I1.153 J1.07 E.01767
G1 X143.542 Y119.44 E.08478
G1 X142.89 Y119.44 E.02447
G1 X144.932 Y121.481 E.10843
G2 X144.794 Y121.995 I1.634 J.715 E.02004
G1 X142.239 Y119.439 E.13569
G1 X141.587 Y119.439 E.02447
G1 X144.988 Y122.841 E.18061
G1 E-.8 F2400
G1 X149.927 Y123.869 Z.6 F30000
G1 Z.2
G1 E.8 F2100
G1 F6300
G1 X150.436 Y124.379 E.02706
G3 X150.54 Y125.134 I-7.863 J1.465 E.02864
G1 X149.797 Y124.391 E.03946
G1 X149.464 Y124.71 E.01731
G1 X150.563 Y125.808 E.05833
G1 X150.563 Y126.46 E.02447
G1 X149.077 Y124.974 E.07889
G1 X148.628 Y125.178 E.01849
G1 X150.563 Y127.112 E.1027
G1 X150.563 Y127.763 E.02447
G1 X148.109 Y125.309 E.13031
G3 X147.494 Y125.347 I-.43 J-2.02 E.0232
G1 X150.563 Y128.415 E.16294
G1 X150.563 Y129.067 E.02447
G1 X146.678 Y125.182 E.20627
G1 X146.589 Y125.155 E.00349
G3 X144.928 Y123.432 I1.047 J-2.672 E.09269
G1 X140.935 Y119.439 E.21202
G1 X140.283 Y119.439 E.02447
G1 X150.563 Y129.718 E.54583
G1 X150.563 Y130.37 E.02447
G1 X139.632 Y119.439 E.58044
G1 X138.98 Y119.439 E.02447
G1 X150.563 Y131.022 E.61505
G1 X150.563 Y131.673 E.02447
G1 X138.328 Y119.439 E.64966
G1 X137.677 Y119.439 E.02447
G1 X150.563 Y132.325 E.68426
G1 X150.563 Y132.977 E.02447
G1 X137.025 Y119.439 E.71887
G1 X136.373 Y119.439 E.02447
G1 X150.563 Y133.628 E.75348
G1 X150.563 Y134.28 E.02447
G1 X145.792 Y129.509 E.25333
G1 X146.177 Y130.339 E.03434
G1 X146.295 Y130.664 E.01298
G1 X150.563 Y134.932 E.22663
G1 X150.563 Y135.583 E.02447
G1 X146.629 Y131.649 E.20889
M73 P5 R11
G3 X146.844 Y132.516 I-5.493 J1.823 E.03356
G1 X150.563 Y136.235 E.19747
G1 X150.563 Y136.886 E.02447
G1 X146.985 Y133.309 E.18997
G1 X147.073 Y134.048 E.02796
G1 X150.563 Y137.538 E.18531
G1 X150.563 Y138.19 E.02447
G1 X147.1 Y134.727 E.18388
G3 X147.096 Y135.375 I-4.089 J.299 E.02434
G1 X150.563 Y138.841 E.1841
G1 X150.563 Y139.493 E.02447
G1 X147.068 Y135.998 E.18558
G1 X146.998 Y136.58 E.02202
G1 X150.563 Y140.145 E.18927
G1 X150.563 Y140.796 E.02447
G1 X146.912 Y137.145 E.19387
G1 X146.803 Y137.688 E.02079
G1 X150.563 Y141.448 E.19965
G1 X150.563 Y142.1 E.02447
G1 X146.669 Y138.206 E.20676
G1 X146.525 Y138.714 E.01981
G1 X150.563 Y142.751 E.21441
G1 X150.563 Y143.403 E.02447
G1 X146.352 Y139.192 E.22361
G3 X146.175 Y139.667 I-3.088 J-.88 E.01904
G1 X150.563 Y144.055 E.233
G3 X150.548 Y144.692 I-6.94 J.161 E.02394
G1 X145.968 Y140.112 E.24321
G3 X145.76 Y140.555 I-2.876 J-1.082 E.01841
G1 X150.491 Y145.287 E.25126
G3 X150.387 Y145.834 I-2.999 J-.29 E.02094
G1 X145.524 Y140.971 E.25821
G3 X145.288 Y141.386 I-2.733 J-1.281 E.01796
G1 X148.787 Y144.886 E.18584
G1 X148.703 Y144.845 E.00353
G2 X147.91 Y144.661 I-1.009 J2.536 E.03066
G1 X145.025 Y141.775 E.15321
G1 X144.762 Y142.164 E.01762
G1 X147.275 Y144.677 E.13341
G2 X146.744 Y144.798 I.135 J1.822 E.02052
G1 X144.473 Y142.527 E.12056
G1 X144.184 Y142.89 E.01741
G1 X146.286 Y144.991 E.1116
G2 X145.888 Y145.245 I.643 J1.446 E.01778
G1 X143.873 Y143.23 E.10701
G3 X143.556 Y143.564 I-2.465 J-2.019 E.01732
G1 X145.544 Y145.553 E.10559
G1 X145.253 Y145.913 E.0174
G1 X143.219 Y143.879 E.108
G3 X142.88 Y144.192 I-1.974 J-1.803 E.01734
G1 X145.02 Y146.332 E.11366
G2 X144.852 Y146.816 I1.519 J.8 E.01929
G1 X142.515 Y144.479 E.12411
G1 X142.15 Y144.765 E.01743
G1 X144.765 Y147.38 E.13887
G2 X144.81 Y148.077 I3.069 J.151 E.02628
G1 X141.767 Y145.034 E.16162
G1 X141.376 Y145.295 E.01764
G1 X146.193 Y150.112 E.25579
G1 X146.077 Y150.33 E.00928
G1 X145.82 Y150.39 E.00991
G1 X140.96 Y145.53 E.25804
G1 X140.544 Y145.766 E.01796
G1 X145.272 Y150.493 E.25105
G3 X144.675 Y150.549 I-.599 J-3.209 E.02252
G1 X140.1 Y145.973 E.24296
G3 X139.655 Y146.18 I-1.389 J-2.415 E.01845
M73 P6 R11
G1 X144.037 Y150.563 E.23274
G1 X143.386 Y150.563 E.02447
G1 X139.176 Y146.353 E.22355
G1 X138.697 Y146.526 E.01911
G1 X142.734 Y150.563 E.21437
G1 X142.083 Y150.563 E.02447
G1 X138.193 Y146.673 E.20653
G3 X137.674 Y146.806 I-1.116 J-3.289 E.02014
G1 X141.431 Y150.563 E.19949
G1 X140.779 Y150.563 E.02447
G1 X137.131 Y146.914 E.19372
G3 X136.565 Y147 I-.824 J-3.529 E.02152
G1 X140.128 Y150.563 E.18917
G1 X139.476 Y150.563 E.02447
G1 X135.983 Y147.069 E.18549
G3 X135.358 Y147.096 I-.482 J-3.93 E.02351
G1 X138.824 Y150.563 E.18406
G1 X138.173 Y150.563 E.02447
G1 X134.709 Y147.099 E.18392
G1 X134.029 Y147.071 E.02554
G1 X137.521 Y150.563 E.18541
G1 X136.869 Y150.563 E.02447
G1 X133.29 Y146.983 E.19009
G3 X132.495 Y146.839 I.507 J-5.09 E.03036
G1 X136.218 Y150.563 E.1977
G1 X135.566 Y150.563 E.02447
G1 X131.624 Y146.621 E.20932
G3 X130.641 Y146.29 I1.598 J-6.367 E.03898
G1 X134.914 Y150.563 E.2269
G1 X134.263 Y150.563 E.02447
G1 X128.935 Y145.235 E.28291
G1 E-.8 F2400
G1 X132.814 Y138.661 Z.6 F30000
G1 X141.026 Y124.743 Z.6
G1 Z.2
G1 E.8 F2100
G1 F6300
G1 X135.721 Y119.439 E.28166
G1 X135.07 Y119.439 E.02447
G1 X139.331 Y123.7 E.2263
